(G-CODE GENERATED BY FLATCAM v8.994 - www.flatcam.org - Version Date: 2020/11/7)

(Name: esp8266_dq_mini_temp_hum_sensor_drill.txt_mill_cnc)
(Type: G-code from Geometry)
(Units: MM)

(Created on Monday, 09 January 2023 at 12:38)

(This preprocessor is the default preprocessor used by FlatCAM.)
(It is made to work with MACH3 compatible motion controllers.)

(TOOL DIAMETER: 0.8 mm)
(Feedrate_XY: 30.0 mm/min)
(Feedrate_Z: 60.0 mm/min)
(Feedrate rapids 1500.0 mm/min)

(Z_Cut: -2.4 mm)
(Z_Move: 2.0 mm)
(Z Start: None mm)
(Z End: 5.0 mm)
(X,Y End: None mm)
(Steps per circle: 64)
(Preprocessor Geometry: default)

(X range:    3.3437 ...   46.9508  mm)
(Y range:    4.8296 ...   23.0922  mm)

(Spindle Speed: 5000.0 RPM)
G21
G90
G94

G01 F30.00

M5
G00 Z5.0000
G00 X0.0000 Y0.0000
T1
M6    
(MSG, Change to Tool Dia = 0.8000)
M0
G00 Z5.0000

M03 S5000.0
G01 F30.00
G00 X3.7327 Y10.1422
G01 F60.00
G01 Z-2.4000
G01 F30.00
G01 X3.7318 Y10.1232
G01 X3.7290 Y10.1043
G01 X3.7243 Y10.0858
G01 X3.7179 Y10.0678
G01 X3.7098 Y10.0505
G01 X3.6999 Y10.0342
G01 X3.6886 Y10.0188
G01 X3.6758 Y10.0047
G01 X3.6616 Y9.9919
G01 X3.6463 Y9.9805
G01 X3.6299 Y9.9707
G01 X3.6127 Y9.9625
G01 X3.5947 Y9.9561
G01 X3.5762 Y9.9515
G01 X3.5573 Y9.9487
G01 X3.5382 Y9.9477
G01 X3.5192 Y9.9487
G01 X3.5003 Y9.9515
G01 X3.4818 Y9.9561
G01 X3.4638 Y9.9625
G01 X3.4465 Y9.9707
G01 X3.4302 Y9.9805
G01 X3.4148 Y9.9919
G01 X3.4007 Y10.0047
G01 X3.3879 Y10.0188
G01 X3.3765 Y10.0342
G01 X3.3667 Y10.0505
G01 X3.3585 Y10.0678
G01 X3.3521 Y10.0858
G01 X3.3475 Y10.1043
G01 X3.3447 Y10.1232
G01 X3.3437 Y10.1422
G01 X3.3447 Y10.1613
G01 X3.3475 Y10.1802
G01 X3.3521 Y10.1987
G01 X3.3585 Y10.2167
G01 X3.3667 Y10.2339
G01 X3.3765 Y10.2503
G01 X3.3879 Y10.2656
G01 X3.4007 Y10.2798
G01 X3.4148 Y10.2926
G01 X3.4302 Y10.3039
G01 X3.4465 Y10.3138
G01 X3.4638 Y10.3219
G01 X3.4818 Y10.3283
G01 X3.5003 Y10.3330
G01 X3.5192 Y10.3358
G01 X3.5382 Y10.3367
G01 X3.5573 Y10.3358
G01 X3.5762 Y10.3330
G01 X3.5947 Y10.3283
G01 X3.6127 Y10.3219
G01 X3.6299 Y10.3138
G01 X3.6463 Y10.3039
G01 X3.6616 Y10.2926
G01 X3.6758 Y10.2798
G01 X3.6886 Y10.2656
G01 X3.6999 Y10.2503
G01 X3.7098 Y10.2339
G01 X3.7179 Y10.2167
G01 X3.7243 Y10.1987
G01 X3.7290 Y10.1802
G01 X3.7318 Y10.1613
G01 X3.7327 Y10.1422
G00 Z2.0000
G00 X6.2727 Y10.1422
G01 F60.00
G01 Z-2.4000
G01 F30.00
G01 X6.2718 Y10.1232
G01 X6.2690 Y10.1043
G01 X6.2643 Y10.0858
G01 X6.2579 Y10.0678
G01 X6.2498 Y10.0505
G01 X6.2399 Y10.0342
G01 X6.2286 Y10.0188
G01 X6.2158 Y10.0047
G01 X6.2016 Y9.9919
G01 X6.1863 Y9.9805
G01 X6.1699 Y9.9707
G01 X6.1527 Y9.9625
G01 X6.1347 Y9.9561
G01 X6.1162 Y9.9515
G01 X6.0973 Y9.9487
G01 X6.0782 Y9.9477
G01 X6.0592 Y9.9487
G01 X6.0403 Y9.9515
G01 X6.0218 Y9.9561
G01 X6.0038 Y9.9625
G01 X5.9865 Y9.9707
G01 X5.9702 Y9.9805
G01 X5.9548 Y9.9919
G01 X5.9407 Y10.0047
G01 X5.9279 Y10.0188
G01 X5.9165 Y10.0342
G01 X5.9067 Y10.0505
G01 X5.8985 Y10.0678
G01 X5.8921 Y10.0858
G01 X5.8875 Y10.1043
G01 X5.8847 Y10.1232
G01 X5.8837 Y10.1422
G01 X5.8847 Y10.1613
G01 X5.8875 Y10.1802
G01 X5.8921 Y10.1987
G01 X5.8985 Y10.2167
G01 X5.9067 Y10.2339
G01 X5.9165 Y10.2503
G01 X5.9279 Y10.2656
G01 X5.9407 Y10.2798
G01 X5.9548 Y10.2926
G01 X5.9702 Y10.3039
G01 X5.9865 Y10.3138
G01 X6.0038 Y10.3219
G01 X6.0218 Y10.3283
G01 X6.0403 Y10.3330
G01 X6.0592 Y10.3358
G01 X6.0782 Y10.3367
G01 X6.0973 Y10.3358
G01 X6.1162 Y10.3330
G01 X6.1347 Y10.3283
G01 X6.1527 Y10.3219
G01 X6.1699 Y10.3138
G01 X6.1863 Y10.3039
G01 X6.2016 Y10.2926
G01 X6.2158 Y10.2798
G01 X6.2286 Y10.2656
G01 X6.2399 Y10.2503
G01 X6.2498 Y10.2339
G01 X6.2579 Y10.2167
G01 X6.2643 Y10.1987
G01 X6.2690 Y10.1802
G01 X6.2718 Y10.1613
G01 X6.2727 Y10.1422
G00 Z2.0000
G00 X13.9308 Y7.6022
G01 F60.00
G01 Z-2.4000
G01 F30.00
G01 X13.9297 Y7.5794
G01 X13.9264 Y7.5568
G01 X13.9208 Y7.5347
G01 X13.9131 Y7.5132
G01 X13.9034 Y7.4926
G01 X13.8916 Y7.4730
G01 X13.8780 Y7.4547
G01 X13.8627 Y7.4377
G01 X13.8458 Y7.4224
G01 X13.8274 Y7.4088
G01 X13.8079 Y7.3971
G01 X13.7872 Y7.3873
G01 X13.7657 Y7.3796
G01 X13.7436 Y7.3741
G01 X13.7210 Y7.3707
G01 X13.6982 Y7.3696
G01 X13.6754 Y7.3707
G01 X13.6528 Y7.3741
G01 X13.6307 Y7.3796
G01 X13.6092 Y7.3873
G01 X13.5886 Y7.3971
G01 X13.5690 Y7.4088
G01 X13.5507 Y7.4224
G01 X13.5337 Y7.4377
G01 X13.5184 Y7.4547
G01 X13.5048 Y7.4730
G01 X13.4931 Y7.4926
G01 X13.4833 Y7.5132
G01 X13.4756 Y7.5347
G01 X13.4701 Y7.5568
G01 X13.4667 Y7.5794
G01 X13.4656 Y7.6022
G01 X13.4667 Y7.6250
G01 X13.4701 Y7.6476
G01 X13.4756 Y7.6697
G01 X13.4833 Y7.6912
G01 X13.4931 Y7.7119
G01 X13.5048 Y7.7314
G01 X13.5184 Y7.7498
G01 X13.5337 Y7.7667
G01 X13.5507 Y7.7820
G01 X13.5690 Y7.7956
G01 X13.5886 Y7.8074
G01 X13.6092 Y7.8171
G01 X13.6307 Y7.8248
G01 X13.6528 Y7.8304
G01 X13.6754 Y7.8337
G01 X13.6982 Y7.8348
G01 X13.7210 Y7.8337
G01 X13.7436 Y7.8304
G01 X13.7657 Y7.8248
G01 X13.7872 Y7.8171
G01 X13.8079 Y7.8074
G01 X13.8274 Y7.7956
G01 X13.8458 Y7.7820
G01 X13.8627 Y7.7667
G01 X13.8780 Y7.7498
G01 X13.8916 Y7.7314
G01 X13.9034 Y7.7119
G01 X13.9131 Y7.6912
G01 X13.9208 Y7.6697
G01 X13.9264 Y7.6476
G01 X13.9297 Y7.6250
G01 X13.9308 Y7.6022
G00 Z2.0000
G00 X13.9308 Y5.0622
G01 F60.00
G01 Z-2.4000
G01 F30.00
G01 X13.9297 Y5.0394
G01 X13.9264 Y5.0168
G01 X13.9208 Y4.9947
G01 X13.9131 Y4.9732
G01 X13.9034 Y4.9526
G01 X13.8916 Y4.9330
G01 X13.8780 Y4.9147
G01 X13.8627 Y4.8977
G01 X13.8458 Y4.8824
G01 X13.8274 Y4.8688
G01 X13.8079 Y4.8571
G01 X13.7872 Y4.8473
G01 X13.7657 Y4.8396
G01 X13.7436 Y4.8341
G01 X13.7210 Y4.8307
G01 X13.6982 Y4.8296
G01 X13.6754 Y4.8307
G01 X13.6528 Y4.8341
G01 X13.6307 Y4.8396
G01 X13.6092 Y4.8473
G01 X13.5886 Y4.8571
G01 X13.5690 Y4.8688
G01 X13.5507 Y4.8824
G01 X13.5337 Y4.8977
G01 X13.5184 Y4.9147
G01 X13.5048 Y4.9330
G01 X13.4931 Y4.9526
G01 X13.4833 Y4.9732
G01 X13.4756 Y4.9947
G01 X13.4701 Y5.0168
G01 X13.4667 Y5.0394
G01 X13.4656 Y5.0622
G01 X13.4667 Y5.0850
G01 X13.4701 Y5.1076
G01 X13.4756 Y5.1297
G01 X13.4833 Y5.1512
G01 X13.4931 Y5.1719
G01 X13.5048 Y5.1914
G01 X13.5184 Y5.2098
G01 X13.5337 Y5.2267
G01 X13.5507 Y5.2420
G01 X13.5690 Y5.2556
G01 X13.5886 Y5.2674
G01 X13.6092 Y5.2771
G01 X13.6307 Y5.2848
G01 X13.6528 Y5.2904
G01 X13.6754 Y5.2937
G01 X13.6982 Y5.2948
G01 X13.7210 Y5.2937
G01 X13.7436 Y5.2904
G01 X13.7657 Y5.2848
G01 X13.7872 Y5.2771
G01 X13.8079 Y5.2674
G01 X13.8274 Y5.2556
G01 X13.8458 Y5.2420
G01 X13.8627 Y5.2267
G01 X13.8780 Y5.2098
G01 X13.8916 Y5.1914
G01 X13.9034 Y5.1719
G01 X13.9131 Y5.1512
G01 X13.9208 Y5.1297
G01 X13.9264 Y5.1076
G01 X13.9297 Y5.0850
G01 X13.9308 Y5.0622
G00 Z2.0000
G00 X18.9868 Y5.0622
G01 F60.00
G01 Z-2.4000
G01 F30.00
G01 X18.9858 Y5.0418
G01 X18.9828 Y5.0215
G01 X18.9778 Y5.0017
G01 X18.9710 Y4.9824
G01 X18.9622 Y4.9639
G01 X18.9517 Y4.9463
G01 X18.9395 Y4.9299
G01 X18.9257 Y4.9147
G01 X18.9106 Y4.9010
G01 X18.8941 Y4.8888
G01 X18.8766 Y4.8782
G01 X18.8581 Y4.8695
G01 X18.8388 Y4.8626
G01 X18.8189 Y4.8576
G01 X18.7987 Y4.8546
G01 X18.7782 Y4.8536
G01 X18.7578 Y4.8546
G01 X18.7375 Y4.8576
G01 X18.7177 Y4.8626
G01 X18.6984 Y4.8695
G01 X18.6799 Y4.8782
G01 X18.6623 Y4.8888
G01 X18.6459 Y4.9010
G01 X18.6307 Y4.9147
G01 X18.6170 Y4.9299
G01 X18.6048 Y4.9463
G01 X18.5942 Y4.9639
G01 X18.5855 Y4.9824
G01 X18.5786 Y5.0017
G01 X18.5736 Y5.0215
G01 X18.5706 Y5.0418
G01 X18.5696 Y5.0622
G01 X18.5706 Y5.0827
G01 X18.5736 Y5.1029
G01 X18.5786 Y5.1228
G01 X18.5855 Y5.1421
G01 X18.5942 Y5.1606
G01 X18.6048 Y5.1781
G01 X18.6170 Y5.1946
G01 X18.6307 Y5.2097
G01 X18.6459 Y5.2235
G01 X18.6623 Y5.2357
G01 X18.6799 Y5.2462
G01 X18.6984 Y5.2550
G01 X18.7177 Y5.2618
G01 X18.7375 Y5.2668
G01 X18.7578 Y5.2698
G01 X18.7782 Y5.2708
G01 X18.7987 Y5.2698
G01 X18.8189 Y5.2668
G01 X18.8388 Y5.2618
G01 X18.8581 Y5.2550
G01 X18.8766 Y5.2462
G01 X18.8941 Y5.2357
G01 X18.9106 Y5.2235
G01 X18.9257 Y5.2097
G01 X18.9395 Y5.1946
G01 X18.9517 Y5.1781
G01 X18.9622 Y5.1606
G01 X18.9710 Y5.1421
G01 X18.9778 Y5.1228
G01 X18.9828 Y5.1029
G01 X18.9858 Y5.0827
G01 X18.9868 Y5.0622
G00 Z2.0000
G00 X18.9868 Y7.6022
G01 F60.00
G01 Z-2.4000
G01 F30.00
G01 X18.9858 Y7.5818
G01 X18.9828 Y7.5615
G01 X18.9778 Y7.5417
G01 X18.9710 Y7.5224
G01 X18.9622 Y7.5039
G01 X18.9517 Y7.4863
G01 X18.9395 Y7.4699
G01 X18.9257 Y7.4547
G01 X18.9106 Y7.4410
G01 X18.8941 Y7.4288
G01 X18.8766 Y7.4182
G01 X18.8581 Y7.4095
G01 X18.8388 Y7.4026
G01 X18.8189 Y7.3976
G01 X18.7987 Y7.3946
G01 X18.7782 Y7.3936
G01 X18.7578 Y7.3946
G01 X18.7375 Y7.3976
G01 X18.7177 Y7.4026
G01 X18.6984 Y7.4095
G01 X18.6799 Y7.4182
G01 X18.6623 Y7.4288
G01 X18.6459 Y7.4410
G01 X18.6307 Y7.4547
G01 X18.6170 Y7.4699
G01 X18.6048 Y7.4863
G01 X18.5942 Y7.5039
G01 X18.5855 Y7.5224
G01 X18.5786 Y7.5417
G01 X18.5736 Y7.5615
G01 X18.5706 Y7.5818
G01 X18.5696 Y7.6022
G01 X18.5706 Y7.6227
G01 X18.5736 Y7.6429
G01 X18.5786 Y7.6628
G01 X18.5855 Y7.6821
G01 X18.5942 Y7.7006
G01 X18.6048 Y7.7181
G01 X18.6170 Y7.7346
G01 X18.6307 Y7.7497
G01 X18.6459 Y7.7635
G01 X18.6623 Y7.7757
G01 X18.6799 Y7.7862
G01 X18.6984 Y7.7950
G01 X18.7177 Y7.8018
G01 X18.7375 Y7.8068
G01 X18.7578 Y7.8098
G01 X18.7782 Y7.8108
G01 X18.7987 Y7.8098
G01 X18.8189 Y7.8068
G01 X18.8388 Y7.8018
G01 X18.8581 Y7.7950
G01 X18.8766 Y7.7862
G01 X18.8941 Y7.7757
G01 X18.9106 Y7.7635
G01 X18.9257 Y7.7497
G01 X18.9395 Y7.7346
G01 X18.9517 Y7.7181
G01 X18.9622 Y7.7006
G01 X18.9710 Y7.6821
G01 X18.9778 Y7.6628
G01 X18.9828 Y7.6429
G01 X18.9858 Y7.6227
G01 X18.9868 Y7.6022
G00 Z2.0000
G00 X18.9868 Y10.1422
G01 F60.00
G01 Z-2.4000
G01 F30.00
G01 X18.9858 Y10.1218
G01 X18.9828 Y10.1015
G01 X18.9778 Y10.0817
G01 X18.9710 Y10.0624
G01 X18.9622 Y10.0439
G01 X18.9517 Y10.0263
G01 X18.9395 Y10.0099
G01 X18.9257 Y9.9947
G01 X18.9106 Y9.9810
G01 X18.8941 Y9.9688
G01 X18.8766 Y9.9582
G01 X18.8581 Y9.9495
G01 X18.8388 Y9.9426
G01 X18.8189 Y9.9376
G01 X18.7987 Y9.9346
G01 X18.7782 Y9.9336
G01 X18.7578 Y9.9346
G01 X18.7375 Y9.9376
G01 X18.7177 Y9.9426
G01 X18.6984 Y9.9495
G01 X18.6799 Y9.9582
G01 X18.6623 Y9.9688
G01 X18.6459 Y9.9810
G01 X18.6307 Y9.9947
G01 X18.6170 Y10.0099
G01 X18.6048 Y10.0263
G01 X18.5942 Y10.0439
G01 X18.5855 Y10.0624
G01 X18.5786 Y10.0817
G01 X18.5736 Y10.1015
G01 X18.5706 Y10.1218
G01 X18.5696 Y10.1422
G01 X18.5706 Y10.1627
G01 X18.5736 Y10.1829
G01 X18.5786 Y10.2028
G01 X18.5855 Y10.2221
G01 X18.5942 Y10.2406
G01 X18.6048 Y10.2581
G01 X18.6170 Y10.2746
G01 X18.6307 Y10.2897
G01 X18.6459 Y10.3035
G01 X18.6623 Y10.3157
G01 X18.6799 Y10.3262
G01 X18.6984 Y10.3350
G01 X18.7177 Y10.3418
G01 X18.7375 Y10.3468
G01 X18.7578 Y10.3498
G01 X18.7782 Y10.3508
G01 X18.7987 Y10.3498
G01 X18.8189 Y10.3468
G01 X18.8388 Y10.3418
G01 X18.8581 Y10.3350
G01 X18.8766 Y10.3262
G01 X18.8941 Y10.3157
G01 X18.9106 Y10.3035
G01 X18.9257 Y10.2897
G01 X18.9395 Y10.2746
G01 X18.9517 Y10.2581
G01 X18.9622 Y10.2406
G01 X18.9710 Y10.2221
G01 X18.9778 Y10.2028
G01 X18.9828 Y10.1829
G01 X18.9858 Y10.1627
G01 X18.9868 Y10.1422
G00 Z2.0000
G00 X18.9868 Y12.6822
G01 F60.00
G01 Z-2.4000
G01 F30.00
G01 X18.9858 Y12.6618
G01 X18.9828 Y12.6415
G01 X18.9778 Y12.6217
G01 X18.9710 Y12.6024
G01 X18.9622 Y12.5839
G01 X18.9517 Y12.5663
G01 X18.9395 Y12.5499
G01 X18.9257 Y12.5347
G01 X18.9106 Y12.5210
G01 X18.8941 Y12.5088
G01 X18.8766 Y12.4982
G01 X18.8581 Y12.4895
G01 X18.8388 Y12.4826
G01 X18.8189 Y12.4776
G01 X18.7987 Y12.4746
G01 X18.7782 Y12.4736
G01 X18.7578 Y12.4746
G01 X18.7375 Y12.4776
G01 X18.7177 Y12.4826
G01 X18.6984 Y12.4895
G01 X18.6799 Y12.4982
G01 X18.6623 Y12.5088
G01 X18.6459 Y12.5210
G01 X18.6307 Y12.5347
G01 X18.6170 Y12.5499
G01 X18.6048 Y12.5663
G01 X18.5942 Y12.5839
G01 X18.5855 Y12.6024
G01 X18.5786 Y12.6217
G01 X18.5736 Y12.6415
G01 X18.5706 Y12.6618
G01 X18.5696 Y12.6822
G01 X18.5706 Y12.7027
G01 X18.5736 Y12.7229
G01 X18.5786 Y12.7428
G01 X18.5855 Y12.7621
G01 X18.5942 Y12.7806
G01 X18.6048 Y12.7981
G01 X18.6170 Y12.8146
G01 X18.6307 Y12.8297
G01 X18.6459 Y12.8435
G01 X18.6623 Y12.8557
G01 X18.6799 Y12.8662
G01 X18.6984 Y12.8750
G01 X18.7177 Y12.8818
G01 X18.7375 Y12.8868
G01 X18.7578 Y12.8898
G01 X18.7782 Y12.8908
G01 X18.7987 Y12.8898
G01 X18.8189 Y12.8868
G01 X18.8388 Y12.8818
G01 X18.8581 Y12.8750
G01 X18.8766 Y12.8662
G01 X18.8941 Y12.8557
G01 X18.9106 Y12.8435
G01 X18.9257 Y12.8297
G01 X18.9395 Y12.8146
G01 X18.9517 Y12.7981
G01 X18.9622 Y12.7806
G01 X18.9710 Y12.7621
G01 X18.9778 Y12.7428
G01 X18.9828 Y12.7229
G01 X18.9858 Y12.7027
G01 X18.9868 Y12.6822
G00 Z2.0000
G00 X18.9868 Y15.2222
G01 F60.00
G01 Z-2.4000
G01 F30.00
G01 X18.9858 Y15.2018
G01 X18.9828 Y15.1815
G01 X18.9778 Y15.1617
G01 X18.9710 Y15.1424
G01 X18.9622 Y15.1239
G01 X18.9517 Y15.1063
G01 X18.9395 Y15.0899
G01 X18.9257 Y15.0747
G01 X18.9106 Y15.0610
G01 X18.8941 Y15.0488
G01 X18.8766 Y15.0382
G01 X18.8581 Y15.0295
G01 X18.8388 Y15.0226
G01 X18.8189 Y15.0176
G01 X18.7987 Y15.0146
G01 X18.7782 Y15.0136
G01 X18.7578 Y15.0146
G01 X18.7375 Y15.0176
G01 X18.7177 Y15.0226
G01 X18.6984 Y15.0295
G01 X18.6799 Y15.0382
G01 X18.6623 Y15.0488
G01 X18.6459 Y15.0610
G01 X18.6307 Y15.0747
G01 X18.6170 Y15.0899
G01 X18.6048 Y15.1063
G01 X18.5942 Y15.1239
G01 X18.5855 Y15.1424
G01 X18.5786 Y15.1617
G01 X18.5736 Y15.1815
G01 X18.5706 Y15.2018
G01 X18.5696 Y15.2222
G01 X18.5706 Y15.2427
G01 X18.5736 Y15.2629
G01 X18.5786 Y15.2828
G01 X18.5855 Y15.3021
G01 X18.5942 Y15.3206
G01 X18.6048 Y15.3381
G01 X18.6170 Y15.3546
G01 X18.6307 Y15.3697
G01 X18.6459 Y15.3835
G01 X18.6623 Y15.3957
G01 X18.6799 Y15.4062
G01 X18.6984 Y15.4150
G01 X18.7177 Y15.4218
G01 X18.7375 Y15.4268
G01 X18.7578 Y15.4298
G01 X18.7782 Y15.4308
G01 X18.7987 Y15.4298
G01 X18.8189 Y15.4268
G01 X18.8388 Y15.4218
G01 X18.8581 Y15.4150
G01 X18.8766 Y15.4062
G01 X18.8941 Y15.3957
G01 X18.9106 Y15.3835
G01 X18.9257 Y15.3697
G01 X18.9395 Y15.3546
G01 X18.9517 Y15.3381
G01 X18.9622 Y15.3206
G01 X18.9710 Y15.3021
G01 X18.9778 Y15.2828
G01 X18.9828 Y15.2629
G01 X18.9858 Y15.2427
G01 X18.9868 Y15.2222
G00 Z2.0000
G00 X18.9868 Y17.7622
G01 F60.00
G01 Z-2.4000
G01 F30.00
G01 X18.9858 Y17.7418
G01 X18.9828 Y17.7215
G01 X18.9778 Y17.7017
G01 X18.9710 Y17.6824
G01 X18.9622 Y17.6639
G01 X18.9517 Y17.6463
G01 X18.9395 Y17.6299
G01 X18.9257 Y17.6147
G01 X18.9106 Y17.6010
G01 X18.8941 Y17.5888
G01 X18.8766 Y17.5782
G01 X18.8581 Y17.5695
G01 X18.8388 Y17.5626
G01 X18.8189 Y17.5576
G01 X18.7987 Y17.5546
G01 X18.7782 Y17.5536
G01 X18.7578 Y17.5546
G01 X18.7375 Y17.5576
G01 X18.7177 Y17.5626
G01 X18.6984 Y17.5695
G01 X18.6799 Y17.5782
G01 X18.6623 Y17.5888
G01 X18.6459 Y17.6010
G01 X18.6307 Y17.6147
G01 X18.6170 Y17.6299
G01 X18.6048 Y17.6463
G01 X18.5942 Y17.6639
G01 X18.5855 Y17.6824
G01 X18.5786 Y17.7017
G01 X18.5736 Y17.7215
G01 X18.5706 Y17.7418
G01 X18.5696 Y17.7622
G01 X18.5706 Y17.7827
G01 X18.5736 Y17.8029
G01 X18.5786 Y17.8228
G01 X18.5855 Y17.8421
G01 X18.5942 Y17.8606
G01 X18.6048 Y17.8781
G01 X18.6170 Y17.8946
G01 X18.6307 Y17.9097
G01 X18.6459 Y17.9235
G01 X18.6623 Y17.9357
G01 X18.6799 Y17.9462
G01 X18.6984 Y17.9550
G01 X18.7177 Y17.9618
G01 X18.7375 Y17.9668
G01 X18.7578 Y17.9698
G01 X18.7782 Y17.9708
G01 X18.7987 Y17.9698
G01 X18.8189 Y17.9668
G01 X18.8388 Y17.9618
G01 X18.8581 Y17.9550
G01 X18.8766 Y17.9462
G01 X18.8941 Y17.9357
G01 X18.9106 Y17.9235
G01 X18.9257 Y17.9097
G01 X18.9395 Y17.8946
G01 X18.9517 Y17.8781
G01 X18.9622 Y17.8606
G01 X18.9710 Y17.8421
G01 X18.9778 Y17.8228
G01 X18.9828 Y17.8029
G01 X18.9858 Y17.7827
G01 X18.9868 Y17.7622
G00 Z2.0000
G00 X18.9868 Y20.3022
G01 F60.00
G01 Z-2.4000
G01 F30.00
G01 X18.9858 Y20.2818
G01 X18.9828 Y20.2615
G01 X18.9778 Y20.2417
G01 X18.9710 Y20.2224
G01 X18.9622 Y20.2039
G01 X18.9517 Y20.1863
G01 X18.9395 Y20.1699
G01 X18.9257 Y20.1547
G01 X18.9106 Y20.1410
G01 X18.8941 Y20.1288
G01 X18.8766 Y20.1182
G01 X18.8581 Y20.1095
G01 X18.8388 Y20.1026
G01 X18.8189 Y20.0976
G01 X18.7987 Y20.0946
G01 X18.7782 Y20.0936
G01 X18.7578 Y20.0946
G01 X18.7375 Y20.0976
G01 X18.7177 Y20.1026
G01 X18.6984 Y20.1095
G01 X18.6799 Y20.1182
G01 X18.6623 Y20.1288
G01 X18.6459 Y20.1410
G01 X18.6307 Y20.1547
G01 X18.6170 Y20.1699
G01 X18.6048 Y20.1863
G01 X18.5942 Y20.2039
G01 X18.5855 Y20.2224
G01 X18.5786 Y20.2417
G01 X18.5736 Y20.2615
G01 X18.5706 Y20.2818
G01 X18.5696 Y20.3022
G01 X18.5706 Y20.3227
G01 X18.5736 Y20.3429
G01 X18.5786 Y20.3628
G01 X18.5855 Y20.3821
G01 X18.5942 Y20.4006
G01 X18.6048 Y20.4181
G01 X18.6170 Y20.4346
G01 X18.6307 Y20.4497
G01 X18.6459 Y20.4635
G01 X18.6623 Y20.4757
G01 X18.6799 Y20.4862
G01 X18.6984 Y20.4950
G01 X18.7177 Y20.5018
G01 X18.7375 Y20.5068
G01 X18.7578 Y20.5098
G01 X18.7782 Y20.5108
G01 X18.7987 Y20.5098
G01 X18.8189 Y20.5068
G01 X18.8388 Y20.5018
G01 X18.8581 Y20.4950
G01 X18.8766 Y20.4862
G01 X18.8941 Y20.4757
G01 X18.9106 Y20.4635
G01 X18.9257 Y20.4497
G01 X18.9395 Y20.4346
G01 X18.9517 Y20.4181
G01 X18.9622 Y20.4006
G01 X18.9710 Y20.3821
G01 X18.9778 Y20.3628
G01 X18.9828 Y20.3429
G01 X18.9858 Y20.3227
G01 X18.9868 Y20.3022
G00 Z2.0000
G00 X18.9868 Y22.8422
G01 F60.00
G01 Z-2.4000
G01 F30.00
G01 X18.9858 Y22.8218
G01 X18.9828 Y22.8015
G01 X18.9778 Y22.7817
G01 X18.9710 Y22.7624
G01 X18.9622 Y22.7439
G01 X18.9517 Y22.7263
G01 X18.9395 Y22.7099
G01 X18.9257 Y22.6947
G01 X18.9106 Y22.6810
G01 X18.8941 Y22.6688
G01 X18.8766 Y22.6582
G01 X18.8581 Y22.6495
G01 X18.8388 Y22.6426
G01 X18.8189 Y22.6376
G01 X18.7987 Y22.6346
G01 X18.7782 Y22.6336
G01 X18.7578 Y22.6346
G01 X18.7375 Y22.6376
G01 X18.7177 Y22.6426
G01 X18.6984 Y22.6495
G01 X18.6799 Y22.6582
G01 X18.6623 Y22.6688
G01 X18.6459 Y22.6810
G01 X18.6307 Y22.6947
G01 X18.6170 Y22.7099
G01 X18.6048 Y22.7263
G01 X18.5942 Y22.7439
G01 X18.5855 Y22.7624
G01 X18.5786 Y22.7817
G01 X18.5736 Y22.8015
G01 X18.5706 Y22.8218
G01 X18.5696 Y22.8422
G01 X18.5706 Y22.8627
G01 X18.5736 Y22.8829
G01 X18.5786 Y22.9028
G01 X18.5855 Y22.9221
G01 X18.5942 Y22.9406
G01 X18.6048 Y22.9581
G01 X18.6170 Y22.9746
G01 X18.6307 Y22.9897
G01 X18.6459 Y23.0035
G01 X18.6623 Y23.0157
G01 X18.6799 Y23.0262
G01 X18.6984 Y23.0350
G01 X18.7177 Y23.0418
G01 X18.7375 Y23.0468
G01 X18.7578 Y23.0498
G01 X18.7782 Y23.0508
G01 X18.7987 Y23.0498
G01 X18.8189 Y23.0468
G01 X18.8388 Y23.0418
G01 X18.8581 Y23.0350
G01 X18.8766 Y23.0262
G01 X18.8941 Y23.0157
G01 X18.9106 Y23.0035
G01 X18.9257 Y22.9897
G01 X18.9395 Y22.9746
G01 X18.9517 Y22.9581
G01 X18.9622 Y22.9406
G01 X18.9710 Y22.9221
G01 X18.9778 Y22.9028
G01 X18.9828 Y22.8829
G01 X18.9858 Y22.8627
G01 X18.9868 Y22.8422
G00 Z2.0000
G00 X13.9482 Y22.8422
G01 F60.00
G01 Z-2.4000
G01 F30.00
G01 X13.9470 Y22.8177
G01 X13.9434 Y22.7934
G01 X13.9375 Y22.7696
G01 X13.9292 Y22.7465
G01 X13.9187 Y22.7244
G01 X13.9061 Y22.7033
G01 X13.8915 Y22.6836
G01 X13.8750 Y22.6654
G01 X13.8568 Y22.6490
G01 X13.8371 Y22.6344
G01 X13.8161 Y22.6217
G01 X13.7939 Y22.6113
G01 X13.7708 Y22.6030
G01 X13.7470 Y22.5970
G01 X13.7227 Y22.5934
G01 X13.6982 Y22.5922
G01 X13.6737 Y22.5934
G01 X13.6494 Y22.5970
G01 X13.6256 Y22.6030
G01 X13.6025 Y22.6113
G01 X13.5804 Y22.6217
G01 X13.5593 Y22.6344
G01 X13.5396 Y22.6490
G01 X13.5214 Y22.6654
G01 X13.5050 Y22.6836
G01 X13.4904 Y22.7033
G01 X13.4777 Y22.7244
G01 X13.4673 Y22.7465
G01 X13.4590 Y22.7696
G01 X13.4530 Y22.7934
G01 X13.4494 Y22.8177
G01 X13.4482 Y22.8422
G01 X13.4494 Y22.8667
G01 X13.4530 Y22.8910
G01 X13.4590 Y22.9148
G01 X13.4673 Y22.9379
G01 X13.4777 Y22.9601
G01 X13.4904 Y22.9811
G01 X13.5050 Y23.0008
G01 X13.5214 Y23.0190
G01 X13.5396 Y23.0355
G01 X13.5593 Y23.0501
G01 X13.5804 Y23.0627
G01 X13.6025 Y23.0732
G01 X13.6256 Y23.0815
G01 X13.6494 Y23.0874
G01 X13.6737 Y23.0910
G01 X13.6982 Y23.0922
G01 X13.7227 Y23.0910
G01 X13.7470 Y23.0874
G01 X13.7708 Y23.0815
G01 X13.7939 Y23.0732
G01 X13.8161 Y23.0627
G01 X13.8371 Y23.0501
G01 X13.8568 Y23.0355
G01 X13.8750 Y23.0190
G01 X13.8915 Y23.0008
G01 X13.9061 Y22.9811
G01 X13.9187 Y22.9601
G01 X13.9292 Y22.9379
G01 X13.9375 Y22.9148
G01 X13.9434 Y22.8910
G01 X13.9470 Y22.8667
G01 X13.9482 Y22.8422
G00 Z2.0000
G00 X13.9482 Y20.3022
G01 F60.00
G01 Z-2.4000
G01 F30.00
G01 X13.9470 Y20.2777
G01 X13.9434 Y20.2534
G01 X13.9375 Y20.2296
G01 X13.9292 Y20.2065
G01 X13.9187 Y20.1844
G01 X13.9061 Y20.1633
G01 X13.8915 Y20.1436
G01 X13.8750 Y20.1254
G01 X13.8568 Y20.1090
G01 X13.8371 Y20.0944
G01 X13.8161 Y20.0817
G01 X13.7939 Y20.0713
G01 X13.7708 Y20.0630
G01 X13.7470 Y20.0570
G01 X13.7227 Y20.0534
G01 X13.6982 Y20.0522
G01 X13.6737 Y20.0534
G01 X13.6494 Y20.0570
G01 X13.6256 Y20.0630
G01 X13.6025 Y20.0713
G01 X13.5804 Y20.0817
G01 X13.5593 Y20.0944
G01 X13.5396 Y20.1090
G01 X13.5214 Y20.1254
G01 X13.5050 Y20.1436
G01 X13.4904 Y20.1633
G01 X13.4777 Y20.1844
G01 X13.4673 Y20.2065
G01 X13.4590 Y20.2296
G01 X13.4530 Y20.2534
G01 X13.4494 Y20.2777
G01 X13.4482 Y20.3022
G01 X13.4494 Y20.3267
G01 X13.4530 Y20.3510
G01 X13.4590 Y20.3748
G01 X13.4673 Y20.3979
G01 X13.4777 Y20.4201
G01 X13.4904 Y20.4411
G01 X13.5050 Y20.4608
G01 X13.5214 Y20.4790
G01 X13.5396 Y20.4955
G01 X13.5593 Y20.5101
G01 X13.5804 Y20.5227
G01 X13.6025 Y20.5332
G01 X13.6256 Y20.5415
G01 X13.6494 Y20.5474
G01 X13.6737 Y20.5510
G01 X13.6982 Y20.5522
G01 X13.7227 Y20.5510
G01 X13.7470 Y20.5474
G01 X13.7708 Y20.5415
G01 X13.7939 Y20.5332
G01 X13.8161 Y20.5227
G01 X13.8371 Y20.5101
G01 X13.8568 Y20.4955
G01 X13.8750 Y20.4790
G01 X13.8915 Y20.4608
G01 X13.9061 Y20.4411
G01 X13.9187 Y20.4201
G01 X13.9292 Y20.3979
G01 X13.9375 Y20.3748
G01 X13.9434 Y20.3510
G01 X13.9470 Y20.3267
G01 X13.9482 Y20.3022
G00 Z2.0000
G00 X13.9482 Y17.7622
G01 F60.00
G01 Z-2.4000
G01 F30.00
G01 X13.9470 Y17.7377
G01 X13.9434 Y17.7134
G01 X13.9375 Y17.6896
G01 X13.9292 Y17.6665
G01 X13.9187 Y17.6444
G01 X13.9061 Y17.6233
G01 X13.8915 Y17.6036
G01 X13.8750 Y17.5854
G01 X13.8568 Y17.5690
G01 X13.8371 Y17.5544
G01 X13.8161 Y17.5417
G01 X13.7939 Y17.5313
G01 X13.7708 Y17.5230
G01 X13.7470 Y17.5170
G01 X13.7227 Y17.5134
G01 X13.6982 Y17.5122
G01 X13.6737 Y17.5134
G01 X13.6494 Y17.5170
G01 X13.6256 Y17.5230
G01 X13.6025 Y17.5313
G01 X13.5804 Y17.5417
G01 X13.5593 Y17.5544
G01 X13.5396 Y17.5690
G01 X13.5214 Y17.5854
G01 X13.5050 Y17.6036
G01 X13.4904 Y17.6233
G01 X13.4777 Y17.6444
G01 X13.4673 Y17.6665
G01 X13.4590 Y17.6896
G01 X13.4530 Y17.7134
G01 X13.4494 Y17.7377
G01 X13.4482 Y17.7622
G01 X13.4494 Y17.7867
G01 X13.4530 Y17.8110
G01 X13.4590 Y17.8348
G01 X13.4673 Y17.8579
G01 X13.4777 Y17.8801
G01 X13.4904 Y17.9011
G01 X13.5050 Y17.9208
G01 X13.5214 Y17.9390
G01 X13.5396 Y17.9555
G01 X13.5593 Y17.9701
G01 X13.5804 Y17.9827
G01 X13.6025 Y17.9932
G01 X13.6256 Y18.0015
G01 X13.6494 Y18.0074
G01 X13.6737 Y18.0110
G01 X13.6982 Y18.0122
G01 X13.7227 Y18.0110
G01 X13.7470 Y18.0074
G01 X13.7708 Y18.0015
G01 X13.7939 Y17.9932
G01 X13.8161 Y17.9827
G01 X13.8371 Y17.9701
G01 X13.8568 Y17.9555
G01 X13.8750 Y17.9390
G01 X13.8915 Y17.9208
G01 X13.9061 Y17.9011
G01 X13.9187 Y17.8801
G01 X13.9292 Y17.8579
G01 X13.9375 Y17.8348
G01 X13.9434 Y17.8110
G01 X13.9470 Y17.7867
G01 X13.9482 Y17.7622
G00 Z2.0000
G00 X13.9482 Y15.2222
G01 F60.00
G01 Z-2.4000
G01 F30.00
G01 X13.9470 Y15.1977
G01 X13.9434 Y15.1734
G01 X13.9375 Y15.1496
G01 X13.9292 Y15.1265
G01 X13.9187 Y15.1044
G01 X13.9061 Y15.0833
G01 X13.8915 Y15.0636
G01 X13.8750 Y15.0454
G01 X13.8568 Y15.0290
G01 X13.8371 Y15.0144
G01 X13.8161 Y15.0017
G01 X13.7939 Y14.9913
G01 X13.7708 Y14.9830
G01 X13.7470 Y14.9770
G01 X13.7227 Y14.9734
G01 X13.6982 Y14.9722
G01 X13.6737 Y14.9734
G01 X13.6494 Y14.9770
G01 X13.6256 Y14.9830
G01 X13.6025 Y14.9913
G01 X13.5804 Y15.0017
G01 X13.5593 Y15.0144
G01 X13.5396 Y15.0290
G01 X13.5214 Y15.0454
G01 X13.5050 Y15.0636
G01 X13.4904 Y15.0833
G01 X13.4777 Y15.1044
G01 X13.4673 Y15.1265
G01 X13.4590 Y15.1496
G01 X13.4530 Y15.1734
G01 X13.4494 Y15.1977
G01 X13.4482 Y15.2222
G01 X13.4494 Y15.2467
G01 X13.4530 Y15.2710
G01 X13.4590 Y15.2948
G01 X13.4673 Y15.3179
G01 X13.4777 Y15.3401
G01 X13.4904 Y15.3611
G01 X13.5050 Y15.3808
G01 X13.5214 Y15.3990
G01 X13.5396 Y15.4155
G01 X13.5593 Y15.4301
G01 X13.5804 Y15.4427
G01 X13.6025 Y15.4532
G01 X13.6256 Y15.4615
G01 X13.6494 Y15.4674
G01 X13.6737 Y15.4710
G01 X13.6982 Y15.4722
G01 X13.7227 Y15.4710
G01 X13.7470 Y15.4674
G01 X13.7708 Y15.4615
G01 X13.7939 Y15.4532
G01 X13.8161 Y15.4427
G01 X13.8371 Y15.4301
G01 X13.8568 Y15.4155
G01 X13.8750 Y15.3990
G01 X13.8915 Y15.3808
G01 X13.9061 Y15.3611
G01 X13.9187 Y15.3401
G01 X13.9292 Y15.3179
G01 X13.9375 Y15.2948
G01 X13.9434 Y15.2710
G01 X13.9470 Y15.2467
G01 X13.9482 Y15.2222
G00 Z2.0000
G00 X13.9482 Y12.6822
G01 F60.00
G01 Z-2.4000
G01 F30.00
G01 X13.9470 Y12.6577
G01 X13.9434 Y12.6334
G01 X13.9375 Y12.6096
G01 X13.9292 Y12.5865
G01 X13.9187 Y12.5644
G01 X13.9061 Y12.5433
G01 X13.8915 Y12.5236
G01 X13.8750 Y12.5054
G01 X13.8568 Y12.4890
G01 X13.8371 Y12.4744
G01 X13.8161 Y12.4617
G01 X13.7939 Y12.4513
G01 X13.7708 Y12.4430
G01 X13.7470 Y12.4370
G01 X13.7227 Y12.4334
G01 X13.6982 Y12.4322
G01 X13.6737 Y12.4334
G01 X13.6494 Y12.4370
G01 X13.6256 Y12.4430
G01 X13.6025 Y12.4513
G01 X13.5804 Y12.4617
G01 X13.5593 Y12.4744
G01 X13.5396 Y12.4890
G01 X13.5214 Y12.5054
G01 X13.5050 Y12.5236
G01 X13.4904 Y12.5433
G01 X13.4777 Y12.5644
G01 X13.4673 Y12.5865
G01 X13.4590 Y12.6096
G01 X13.4530 Y12.6334
G01 X13.4494 Y12.6577
G01 X13.4482 Y12.6822
G01 X13.4494 Y12.7067
G01 X13.4530 Y12.7310
G01 X13.4590 Y12.7548
G01 X13.4673 Y12.7779
G01 X13.4777 Y12.8001
G01 X13.4904 Y12.8211
G01 X13.5050 Y12.8408
G01 X13.5214 Y12.8590
G01 X13.5396 Y12.8755
G01 X13.5593 Y12.8901
G01 X13.5804 Y12.9027
G01 X13.6025 Y12.9132
G01 X13.6256 Y12.9215
G01 X13.6494 Y12.9274
G01 X13.6737 Y12.9310
G01 X13.6982 Y12.9322
G01 X13.7227 Y12.9310
G01 X13.7470 Y12.9274
G01 X13.7708 Y12.9215
G01 X13.7939 Y12.9132
G01 X13.8161 Y12.9027
G01 X13.8371 Y12.8901
G01 X13.8568 Y12.8755
G01 X13.8750 Y12.8590
G01 X13.8915 Y12.8408
G01 X13.9061 Y12.8211
G01 X13.9187 Y12.8001
G01 X13.9292 Y12.7779
G01 X13.9375 Y12.7548
G01 X13.9434 Y12.7310
G01 X13.9470 Y12.7067
G01 X13.9482 Y12.6822
G00 Z2.0000
G00 X6.2727 Y20.3022
G01 F60.00
G01 Z-2.4000
G01 F30.00
G01 X6.2718 Y20.2832
G01 X6.2690 Y20.2643
G01 X6.2643 Y20.2458
G01 X6.2579 Y20.2278
G01 X6.2498 Y20.2105
G01 X6.2399 Y20.1942
G01 X6.2286 Y20.1788
G01 X6.2158 Y20.1647
G01 X6.2016 Y20.1519
G01 X6.1863 Y20.1405
G01 X6.1699 Y20.1307
G01 X6.1527 Y20.1225
G01 X6.1347 Y20.1161
G01 X6.1162 Y20.1115
G01 X6.0973 Y20.1087
G01 X6.0782 Y20.1077
G01 X6.0592 Y20.1087
G01 X6.0403 Y20.1115
G01 X6.0218 Y20.1161
G01 X6.0038 Y20.1225
G01 X5.9865 Y20.1307
G01 X5.9702 Y20.1405
G01 X5.9548 Y20.1519
G01 X5.9407 Y20.1647
G01 X5.9279 Y20.1788
G01 X5.9165 Y20.1942
G01 X5.9067 Y20.2105
G01 X5.8985 Y20.2278
G01 X5.8921 Y20.2458
G01 X5.8875 Y20.2643
G01 X5.8847 Y20.2832
G01 X5.8837 Y20.3022
G01 X5.8847 Y20.3213
G01 X5.8875 Y20.3402
G01 X5.8921 Y20.3587
G01 X5.8985 Y20.3767
G01 X5.9067 Y20.3939
G01 X5.9165 Y20.4103
G01 X5.9279 Y20.4256
G01 X5.9407 Y20.4398
G01 X5.9548 Y20.4526
G01 X5.9702 Y20.4639
G01 X5.9865 Y20.4738
G01 X6.0038 Y20.4819
G01 X6.0218 Y20.4883
G01 X6.0403 Y20.4930
G01 X6.0592 Y20.4958
G01 X6.0782 Y20.4967
G01 X6.0973 Y20.4958
G01 X6.1162 Y20.4930
G01 X6.1347 Y20.4883
G01 X6.1527 Y20.4819
G01 X6.1699 Y20.4738
G01 X6.1863 Y20.4639
G01 X6.2016 Y20.4526
G01 X6.2158 Y20.4398
G01 X6.2286 Y20.4256
G01 X6.2399 Y20.4103
G01 X6.2498 Y20.3939
G01 X6.2579 Y20.3767
G01 X6.2643 Y20.3587
G01 X6.2690 Y20.3402
G01 X6.2718 Y20.3213
G01 X6.2727 Y20.3022
G00 Z2.0000
G00 X3.7327 Y20.3022
G01 F60.00
G01 Z-2.4000
G01 F30.00
G01 X3.7318 Y20.2832
G01 X3.7290 Y20.2643
G01 X3.7243 Y20.2458
G01 X3.7179 Y20.2278
G01 X3.7098 Y20.2105
G01 X3.6999 Y20.1942
G01 X3.6886 Y20.1788
G01 X3.6758 Y20.1647
G01 X3.6616 Y20.1519
G01 X3.6463 Y20.1405
G01 X3.6299 Y20.1307
G01 X3.6127 Y20.1225
G01 X3.5947 Y20.1161
G01 X3.5762 Y20.1115
G01 X3.5573 Y20.1087
G01 X3.5382 Y20.1077
G01 X3.5192 Y20.1087
G01 X3.5003 Y20.1115
G01 X3.4818 Y20.1161
G01 X3.4638 Y20.1225
G01 X3.4465 Y20.1307
G01 X3.4302 Y20.1405
G01 X3.4148 Y20.1519
G01 X3.4007 Y20.1647
G01 X3.3879 Y20.1788
G01 X3.3765 Y20.1942
G01 X3.3667 Y20.2105
G01 X3.3585 Y20.2278
G01 X3.3521 Y20.2458
G01 X3.3475 Y20.2643
G01 X3.3447 Y20.2832
G01 X3.3437 Y20.3022
G01 X3.3447 Y20.3213
G01 X3.3475 Y20.3402
G01 X3.3521 Y20.3587
G01 X3.3585 Y20.3767
G01 X3.3667 Y20.3939
G01 X3.3765 Y20.4103
G01 X3.3879 Y20.4256
G01 X3.4007 Y20.4398
G01 X3.4148 Y20.4526
G01 X3.4302 Y20.4639
G01 X3.4465 Y20.4738
G01 X3.4638 Y20.4819
G01 X3.4818 Y20.4883
G01 X3.5003 Y20.4930
G01 X3.5192 Y20.4958
G01 X3.5382 Y20.4967
G01 X3.5573 Y20.4958
G01 X3.5762 Y20.4930
G01 X3.5947 Y20.4883
G01 X3.6127 Y20.4819
G01 X3.6299 Y20.4738
G01 X3.6463 Y20.4639
G01 X3.6616 Y20.4526
G01 X3.6758 Y20.4398
G01 X3.6886 Y20.4256
G01 X3.6999 Y20.4103
G01 X3.7098 Y20.3939
G01 X3.7179 Y20.3767
G01 X3.7243 Y20.3587
G01 X3.7290 Y20.3402
G01 X3.7318 Y20.3213
G01 X3.7327 Y20.3022
G00 Z2.0000
G00 X41.8468 Y20.3022
G01 F60.00
G01 Z-2.4000
G01 F30.00
G01 X41.8458 Y20.2818
G01 X41.8428 Y20.2615
G01 X41.8378 Y20.2417
G01 X41.8310 Y20.2224
G01 X41.8222 Y20.2039
G01 X41.8117 Y20.1863
G01 X41.7995 Y20.1699
G01 X41.7857 Y20.1547
G01 X41.7706 Y20.1410
G01 X41.7541 Y20.1288
G01 X41.7366 Y20.1182
G01 X41.7181 Y20.1095
G01 X41.6988 Y20.1026
G01 X41.6789 Y20.0976
G01 X41.6587 Y20.0946
G01 X41.6382 Y20.0936
G01 X41.6178 Y20.0946
G01 X41.5975 Y20.0976
G01 X41.5777 Y20.1026
G01 X41.5584 Y20.1095
G01 X41.5399 Y20.1182
G01 X41.5223 Y20.1288
G01 X41.5059 Y20.1410
G01 X41.4907 Y20.1547
G01 X41.4770 Y20.1699
G01 X41.4648 Y20.1863
G01 X41.4542 Y20.2039
G01 X41.4455 Y20.2224
G01 X41.4386 Y20.2417
G01 X41.4336 Y20.2615
G01 X41.4306 Y20.2818
G01 X41.4296 Y20.3022
G01 X41.4306 Y20.3227
G01 X41.4336 Y20.3429
G01 X41.4386 Y20.3628
G01 X41.4455 Y20.3821
G01 X41.4542 Y20.4006
G01 X41.4648 Y20.4181
G01 X41.4770 Y20.4346
G01 X41.4907 Y20.4497
G01 X41.5059 Y20.4635
G01 X41.5223 Y20.4757
G01 X41.5399 Y20.4862
G01 X41.5584 Y20.4950
G01 X41.5777 Y20.5018
G01 X41.5975 Y20.5068
G01 X41.6178 Y20.5098
G01 X41.6382 Y20.5108
G01 X41.6587 Y20.5098
G01 X41.6789 Y20.5068
G01 X41.6988 Y20.5018
G01 X41.7181 Y20.4950
G01 X41.7366 Y20.4862
G01 X41.7541 Y20.4757
G01 X41.7706 Y20.4635
G01 X41.7857 Y20.4497
G01 X41.7995 Y20.4346
G01 X41.8117 Y20.4181
G01 X41.8222 Y20.4006
G01 X41.8310 Y20.3821
G01 X41.8378 Y20.3628
G01 X41.8428 Y20.3429
G01 X41.8458 Y20.3227
G01 X41.8468 Y20.3022
G00 Z2.0000
G00 X41.8468 Y17.7622
G01 F60.00
G01 Z-2.4000
G01 F30.00
G01 X41.8458 Y17.7418
G01 X41.8428 Y17.7215
G01 X41.8378 Y17.7017
G01 X41.8310 Y17.6824
G01 X41.8222 Y17.6639
G01 X41.8117 Y17.6463
G01 X41.7995 Y17.6299
G01 X41.7857 Y17.6147
G01 X41.7706 Y17.6010
G01 X41.7541 Y17.5888
G01 X41.7366 Y17.5782
G01 X41.7181 Y17.5695
G01 X41.6988 Y17.5626
G01 X41.6789 Y17.5576
G01 X41.6587 Y17.5546
G01 X41.6382 Y17.5536
G01 X41.6178 Y17.5546
G01 X41.5975 Y17.5576
G01 X41.5777 Y17.5626
G01 X41.5584 Y17.5695
G01 X41.5399 Y17.5782
G01 X41.5223 Y17.5888
G01 X41.5059 Y17.6010
G01 X41.4907 Y17.6147
G01 X41.4770 Y17.6299
G01 X41.4648 Y17.6463
G01 X41.4542 Y17.6639
G01 X41.4455 Y17.6824
G01 X41.4386 Y17.7017
G01 X41.4336 Y17.7215
G01 X41.4306 Y17.7418
G01 X41.4296 Y17.7622
G01 X41.4306 Y17.7827
G01 X41.4336 Y17.8029
G01 X41.4386 Y17.8228
G01 X41.4455 Y17.8421
G01 X41.4542 Y17.8606
G01 X41.4648 Y17.8781
G01 X41.4770 Y17.8946
G01 X41.4907 Y17.9097
G01 X41.5059 Y17.9235
G01 X41.5223 Y17.9357
G01 X41.5399 Y17.9462
G01 X41.5584 Y17.9550
G01 X41.5777 Y17.9618
G01 X41.5975 Y17.9668
G01 X41.6178 Y17.9698
G01 X41.6382 Y17.9708
G01 X41.6587 Y17.9698
G01 X41.6789 Y17.9668
G01 X41.6988 Y17.9618
G01 X41.7181 Y17.9550
G01 X41.7366 Y17.9462
G01 X41.7541 Y17.9357
G01 X41.7706 Y17.9235
G01 X41.7857 Y17.9097
G01 X41.7995 Y17.8946
G01 X41.8117 Y17.8781
G01 X41.8222 Y17.8606
G01 X41.8310 Y17.8421
G01 X41.8378 Y17.8228
G01 X41.8428 Y17.8029
G01 X41.8458 Y17.7827
G01 X41.8468 Y17.7622
G00 Z2.0000
G00 X41.8468 Y15.2222
G01 F60.00
G01 Z-2.4000
G01 F30.00
G01 X41.8458 Y15.2018
G01 X41.8428 Y15.1815
G01 X41.8378 Y15.1617
G01 X41.8310 Y15.1424
G01 X41.8222 Y15.1239
G01 X41.8117 Y15.1063
G01 X41.7995 Y15.0899
G01 X41.7857 Y15.0747
G01 X41.7706 Y15.0610
G01 X41.7541 Y15.0488
G01 X41.7366 Y15.0382
G01 X41.7181 Y15.0295
G01 X41.6988 Y15.0226
G01 X41.6789 Y15.0176
G01 X41.6587 Y15.0146
G01 X41.6382 Y15.0136
G01 X41.6178 Y15.0146
G01 X41.5975 Y15.0176
G01 X41.5777 Y15.0226
G01 X41.5584 Y15.0295
G01 X41.5399 Y15.0382
G01 X41.5223 Y15.0488
G01 X41.5059 Y15.0610
G01 X41.4907 Y15.0747
G01 X41.4770 Y15.0899
G01 X41.4648 Y15.1063
G01 X41.4542 Y15.1239
G01 X41.4455 Y15.1424
G01 X41.4386 Y15.1617
G01 X41.4336 Y15.1815
G01 X41.4306 Y15.2018
G01 X41.4296 Y15.2222
G01 X41.4306 Y15.2427
G01 X41.4336 Y15.2629
G01 X41.4386 Y15.2828
G01 X41.4455 Y15.3021
G01 X41.4542 Y15.3206
G01 X41.4648 Y15.3381
G01 X41.4770 Y15.3546
G01 X41.4907 Y15.3697
G01 X41.5059 Y15.3835
G01 X41.5223 Y15.3957
G01 X41.5399 Y15.4062
G01 X41.5584 Y15.4150
G01 X41.5777 Y15.4218
G01 X41.5975 Y15.4268
G01 X41.6178 Y15.4298
G01 X41.6382 Y15.4308
G01 X41.6587 Y15.4298
G01 X41.6789 Y15.4268
G01 X41.6988 Y15.4218
G01 X41.7181 Y15.4150
G01 X41.7366 Y15.4062
G01 X41.7541 Y15.3957
G01 X41.7706 Y15.3835
G01 X41.7857 Y15.3697
G01 X41.7995 Y15.3546
G01 X41.8117 Y15.3381
G01 X41.8222 Y15.3206
G01 X41.8310 Y15.3021
G01 X41.8378 Y15.2828
G01 X41.8428 Y15.2629
G01 X41.8458 Y15.2427
G01 X41.8468 Y15.2222
G00 Z2.0000
G00 X41.8468 Y12.6822
G01 F60.00
G01 Z-2.4000
G01 F30.00
G01 X41.8458 Y12.6618
G01 X41.8428 Y12.6415
G01 X41.8378 Y12.6217
G01 X41.8310 Y12.6024
G01 X41.8222 Y12.5839
G01 X41.8117 Y12.5663
G01 X41.7995 Y12.5499
G01 X41.7857 Y12.5347
G01 X41.7706 Y12.5210
G01 X41.7541 Y12.5088
G01 X41.7366 Y12.4982
G01 X41.7181 Y12.4895
G01 X41.6988 Y12.4826
G01 X41.6789 Y12.4776
G01 X41.6587 Y12.4746
G01 X41.6382 Y12.4736
G01 X41.6178 Y12.4746
G01 X41.5975 Y12.4776
G01 X41.5777 Y12.4826
G01 X41.5584 Y12.4895
G01 X41.5399 Y12.4982
G01 X41.5223 Y12.5088
G01 X41.5059 Y12.5210
G01 X41.4907 Y12.5347
G01 X41.4770 Y12.5499
G01 X41.4648 Y12.5663
G01 X41.4542 Y12.5839
G01 X41.4455 Y12.6024
G01 X41.4386 Y12.6217
G01 X41.4336 Y12.6415
G01 X41.4306 Y12.6618
G01 X41.4296 Y12.6822
G01 X41.4306 Y12.7027
G01 X41.4336 Y12.7229
G01 X41.4386 Y12.7428
G01 X41.4455 Y12.7621
G01 X41.4542 Y12.7806
G01 X41.4648 Y12.7981
G01 X41.4770 Y12.8146
G01 X41.4907 Y12.8297
G01 X41.5059 Y12.8435
G01 X41.5223 Y12.8557
G01 X41.5399 Y12.8662
G01 X41.5584 Y12.8750
G01 X41.5777 Y12.8818
G01 X41.5975 Y12.8868
G01 X41.6178 Y12.8898
G01 X41.6382 Y12.8908
G01 X41.6587 Y12.8898
G01 X41.6789 Y12.8868
G01 X41.6988 Y12.8818
G01 X41.7181 Y12.8750
G01 X41.7366 Y12.8662
G01 X41.7541 Y12.8557
G01 X41.7706 Y12.8435
G01 X41.7857 Y12.8297
G01 X41.7995 Y12.8146
G01 X41.8117 Y12.7981
G01 X41.8222 Y12.7806
G01 X41.8310 Y12.7621
G01 X41.8378 Y12.7428
G01 X41.8428 Y12.7229
G01 X41.8458 Y12.7027
G01 X41.8468 Y12.6822
G00 Z2.0000
G00 X41.8468 Y10.1422
G01 F60.00
G01 Z-2.4000
G01 F30.00
G01 X41.8458 Y10.1218
G01 X41.8428 Y10.1015
G01 X41.8378 Y10.0817
G01 X41.8310 Y10.0624
G01 X41.8222 Y10.0439
G01 X41.8117 Y10.0263
G01 X41.7995 Y10.0099
G01 X41.7857 Y9.9947
G01 X41.7706 Y9.9810
G01 X41.7541 Y9.9688
G01 X41.7366 Y9.9582
G01 X41.7181 Y9.9495
G01 X41.6988 Y9.9426
G01 X41.6789 Y9.9376
G01 X41.6587 Y9.9346
G01 X41.6382 Y9.9336
G01 X41.6178 Y9.9346
G01 X41.5975 Y9.9376
G01 X41.5777 Y9.9426
G01 X41.5584 Y9.9495
G01 X41.5399 Y9.9582
G01 X41.5223 Y9.9688
G01 X41.5059 Y9.9810
G01 X41.4907 Y9.9947
G01 X41.4770 Y10.0099
G01 X41.4648 Y10.0263
G01 X41.4542 Y10.0439
G01 X41.4455 Y10.0624
G01 X41.4386 Y10.0817
G01 X41.4336 Y10.1015
G01 X41.4306 Y10.1218
G01 X41.4296 Y10.1422
G01 X41.4306 Y10.1627
G01 X41.4336 Y10.1829
G01 X41.4386 Y10.2028
G01 X41.4455 Y10.2221
G01 X41.4542 Y10.2406
G01 X41.4648 Y10.2581
G01 X41.4770 Y10.2746
G01 X41.4907 Y10.2897
G01 X41.5059 Y10.3035
G01 X41.5223 Y10.3157
G01 X41.5399 Y10.3262
G01 X41.5584 Y10.3350
G01 X41.5777 Y10.3418
G01 X41.5975 Y10.3468
G01 X41.6178 Y10.3498
G01 X41.6382 Y10.3508
G01 X41.6587 Y10.3498
G01 X41.6789 Y10.3468
G01 X41.6988 Y10.3418
G01 X41.7181 Y10.3350
G01 X41.7366 Y10.3262
G01 X41.7541 Y10.3157
G01 X41.7706 Y10.3035
G01 X41.7857 Y10.2897
G01 X41.7995 Y10.2746
G01 X41.8117 Y10.2581
G01 X41.8222 Y10.2406
G01 X41.8310 Y10.2221
G01 X41.8378 Y10.2028
G01 X41.8428 Y10.1829
G01 X41.8458 Y10.1627
G01 X41.8468 Y10.1422
G00 Z2.0000
G00 X41.8468 Y7.6022
G01 F60.00
G01 Z-2.4000
G01 F30.00
G01 X41.8458 Y7.5818
G01 X41.8428 Y7.5615
G01 X41.8378 Y7.5417
G01 X41.8310 Y7.5224
G01 X41.8222 Y7.5039
G01 X41.8117 Y7.4863
G01 X41.7995 Y7.4699
G01 X41.7857 Y7.4547
G01 X41.7706 Y7.4410
G01 X41.7541 Y7.4288
G01 X41.7366 Y7.4182
G01 X41.7181 Y7.4095
G01 X41.6988 Y7.4026
G01 X41.6789 Y7.3976
G01 X41.6587 Y7.3946
G01 X41.6382 Y7.3936
G01 X41.6178 Y7.3946
G01 X41.5975 Y7.3976
G01 X41.5777 Y7.4026
G01 X41.5584 Y7.4095
G01 X41.5399 Y7.4182
G01 X41.5223 Y7.4288
G01 X41.5059 Y7.4410
G01 X41.4907 Y7.4547
G01 X41.4770 Y7.4699
G01 X41.4648 Y7.4863
G01 X41.4542 Y7.5039
G01 X41.4455 Y7.5224
G01 X41.4386 Y7.5417
G01 X41.4336 Y7.5615
G01 X41.4306 Y7.5818
G01 X41.4296 Y7.6022
G01 X41.4306 Y7.6227
G01 X41.4336 Y7.6429
G01 X41.4386 Y7.6628
G01 X41.4455 Y7.6821
G01 X41.4542 Y7.7006
G01 X41.4648 Y7.7181
G01 X41.4770 Y7.7346
G01 X41.4907 Y7.7497
G01 X41.5059 Y7.7635
G01 X41.5223 Y7.7757
G01 X41.5399 Y7.7862
G01 X41.5584 Y7.7950
G01 X41.5777 Y7.8018
G01 X41.5975 Y7.8068
G01 X41.6178 Y7.8098
G01 X41.6382 Y7.8108
G01 X41.6587 Y7.8098
G01 X41.6789 Y7.8068
G01 X41.6988 Y7.8018
G01 X41.7181 Y7.7950
G01 X41.7366 Y7.7862
G01 X41.7541 Y7.7757
G01 X41.7706 Y7.7635
G01 X41.7857 Y7.7497
G01 X41.7995 Y7.7346
G01 X41.8117 Y7.7181
G01 X41.8222 Y7.7006
G01 X41.8310 Y7.6821
G01 X41.8378 Y7.6628
G01 X41.8428 Y7.6429
G01 X41.8458 Y7.6227
G01 X41.8468 Y7.6022
G00 Z2.0000
G00 X41.8468 Y5.0622
G01 F60.00
G01 Z-2.4000
G01 F30.00
G01 X41.8458 Y5.0418
G01 X41.8428 Y5.0215
G01 X41.8378 Y5.0017
G01 X41.8310 Y4.9824
G01 X41.8222 Y4.9639
G01 X41.8117 Y4.9463
G01 X41.7995 Y4.9299
G01 X41.7857 Y4.9147
G01 X41.7706 Y4.9010
G01 X41.7541 Y4.8888
G01 X41.7366 Y4.8782
G01 X41.7181 Y4.8695
G01 X41.6988 Y4.8626
G01 X41.6789 Y4.8576
G01 X41.6587 Y4.8546
G01 X41.6382 Y4.8536
G01 X41.6178 Y4.8546
G01 X41.5975 Y4.8576
G01 X41.5777 Y4.8626
G01 X41.5584 Y4.8695
G01 X41.5399 Y4.8782
G01 X41.5223 Y4.8888
G01 X41.5059 Y4.9010
G01 X41.4907 Y4.9147
G01 X41.4770 Y4.9299
G01 X41.4648 Y4.9463
G01 X41.4542 Y4.9639
G01 X41.4455 Y4.9824
G01 X41.4386 Y5.0017
G01 X41.4336 Y5.0215
G01 X41.4306 Y5.0418
G01 X41.4296 Y5.0622
G01 X41.4306 Y5.0827
G01 X41.4336 Y5.1029
G01 X41.4386 Y5.1228
G01 X41.4455 Y5.1421
G01 X41.4542 Y5.1606
G01 X41.4648 Y5.1781
G01 X41.4770 Y5.1946
G01 X41.4907 Y5.2097
G01 X41.5059 Y5.2235
G01 X41.5223 Y5.2357
G01 X41.5399 Y5.2462
G01 X41.5584 Y5.2550
G01 X41.5777 Y5.2618
G01 X41.5975 Y5.2668
G01 X41.6178 Y5.2698
G01 X41.6382 Y5.2708
G01 X41.6587 Y5.2698
G01 X41.6789 Y5.2668
G01 X41.6988 Y5.2618
G01 X41.7181 Y5.2550
G01 X41.7366 Y5.2462
G01 X41.7541 Y5.2357
G01 X41.7706 Y5.2235
G01 X41.7857 Y5.2097
G01 X41.7995 Y5.1946
G01 X41.8117 Y5.1781
G01 X41.8222 Y5.1606
G01 X41.8310 Y5.1421
G01 X41.8378 Y5.1228
G01 X41.8428 Y5.1029
G01 X41.8458 Y5.0827
G01 X41.8468 Y5.0622
G00 Z2.0000
G00 X46.9508 Y17.7622
G01 F60.00
G01 Z-2.4000
G01 F30.00
G01 X46.9497 Y17.7394
G01 X46.9464 Y17.7168
G01 X46.9408 Y17.6947
G01 X46.9331 Y17.6732
G01 X46.9234 Y17.6526
G01 X46.9116 Y17.6330
G01 X46.8980 Y17.6147
G01 X46.8827 Y17.5977
G01 X46.8658 Y17.5824
G01 X46.8474 Y17.5688
G01 X46.8279 Y17.5571
G01 X46.8072 Y17.5473
G01 X46.7857 Y17.5396
G01 X46.7636 Y17.5341
G01 X46.7410 Y17.5307
G01 X46.7182 Y17.5296
G01 X46.6954 Y17.5307
G01 X46.6728 Y17.5341
G01 X46.6507 Y17.5396
G01 X46.6292 Y17.5473
G01 X46.6086 Y17.5571
G01 X46.5890 Y17.5688
G01 X46.5707 Y17.5824
G01 X46.5537 Y17.5977
G01 X46.5384 Y17.6147
G01 X46.5248 Y17.6330
G01 X46.5131 Y17.6526
G01 X46.5033 Y17.6732
G01 X46.4956 Y17.6947
G01 X46.4901 Y17.7168
G01 X46.4867 Y17.7394
G01 X46.4856 Y17.7622
G01 X46.4867 Y17.7850
G01 X46.4901 Y17.8076
G01 X46.4956 Y17.8297
G01 X46.5033 Y17.8512
G01 X46.5131 Y17.8719
G01 X46.5248 Y17.8914
G01 X46.5384 Y17.9098
G01 X46.5537 Y17.9267
G01 X46.5707 Y17.9420
G01 X46.5890 Y17.9556
G01 X46.6086 Y17.9674
G01 X46.6292 Y17.9771
G01 X46.6507 Y17.9848
G01 X46.6728 Y17.9904
G01 X46.6954 Y17.9937
G01 X46.7182 Y17.9948
G01 X46.7410 Y17.9937
G01 X46.7636 Y17.9904
G01 X46.7857 Y17.9848
G01 X46.8072 Y17.9771
G01 X46.8279 Y17.9674
G01 X46.8474 Y17.9556
G01 X46.8658 Y17.9420
G01 X46.8827 Y17.9267
G01 X46.8980 Y17.9098
G01 X46.9116 Y17.8914
G01 X46.9234 Y17.8719
G01 X46.9331 Y17.8512
G01 X46.9408 Y17.8297
G01 X46.9464 Y17.8076
G01 X46.9497 Y17.7850
G01 X46.9508 Y17.7622
G00 Z2.0000
G00 X46.9508 Y20.3022
G01 F60.00
G01 Z-2.4000
G01 F30.00
G01 X46.9497 Y20.2794
G01 X46.9464 Y20.2568
G01 X46.9408 Y20.2347
G01 X46.9331 Y20.2132
G01 X46.9234 Y20.1926
G01 X46.9116 Y20.1730
G01 X46.8980 Y20.1547
G01 X46.8827 Y20.1377
G01 X46.8658 Y20.1224
G01 X46.8474 Y20.1088
G01 X46.8279 Y20.0971
G01 X46.8072 Y20.0873
G01 X46.7857 Y20.0796
G01 X46.7636 Y20.0741
G01 X46.7410 Y20.0707
G01 X46.7182 Y20.0696
G01 X46.6954 Y20.0707
G01 X46.6728 Y20.0741
G01 X46.6507 Y20.0796
G01 X46.6292 Y20.0873
G01 X46.6086 Y20.0971
G01 X46.5890 Y20.1088
G01 X46.5707 Y20.1224
G01 X46.5537 Y20.1377
G01 X46.5384 Y20.1547
G01 X46.5248 Y20.1730
G01 X46.5131 Y20.1926
G01 X46.5033 Y20.2132
G01 X46.4956 Y20.2347
G01 X46.4901 Y20.2568
G01 X46.4867 Y20.2794
G01 X46.4856 Y20.3022
G01 X46.4867 Y20.3250
G01 X46.4901 Y20.3476
G01 X46.4956 Y20.3697
G01 X46.5033 Y20.3912
G01 X46.5131 Y20.4119
G01 X46.5248 Y20.4314
G01 X46.5384 Y20.4498
G01 X46.5537 Y20.4667
G01 X46.5707 Y20.4820
G01 X46.5890 Y20.4956
G01 X46.6086 Y20.5074
G01 X46.6292 Y20.5171
G01 X46.6507 Y20.5248
G01 X46.6728 Y20.5304
G01 X46.6954 Y20.5337
G01 X46.7182 Y20.5348
G01 X46.7410 Y20.5337
G01 X46.7636 Y20.5304
G01 X46.7857 Y20.5248
G01 X46.8072 Y20.5171
G01 X46.8279 Y20.5074
G01 X46.8474 Y20.4956
G01 X46.8658 Y20.4820
G01 X46.8827 Y20.4667
G01 X46.8980 Y20.4498
G01 X46.9116 Y20.4314
G01 X46.9234 Y20.4119
G01 X46.9331 Y20.3912
G01 X46.9408 Y20.3697
G01 X46.9464 Y20.3476
G01 X46.9497 Y20.3250
G01 X46.9508 Y20.3022
G00 Z2.0000
G00 X41.8468 Y22.8422
G01 F60.00
G01 Z-2.4000
G01 F30.00
G01 X41.8458 Y22.8218
G01 X41.8428 Y22.8015
G01 X41.8378 Y22.7817
G01 X41.8310 Y22.7624
G01 X41.8222 Y22.7439
G01 X41.8117 Y22.7263
G01 X41.7995 Y22.7099
G01 X41.7857 Y22.6947
G01 X41.7706 Y22.6810
G01 X41.7541 Y22.6688
G01 X41.7366 Y22.6582
G01 X41.7181 Y22.6495
G01 X41.6988 Y22.6426
G01 X41.6789 Y22.6376
G01 X41.6587 Y22.6346
G01 X41.6382 Y22.6336
G01 X41.6178 Y22.6346
G01 X41.5975 Y22.6376
G01 X41.5777 Y22.6426
G01 X41.5584 Y22.6495
G01 X41.5399 Y22.6582
G01 X41.5223 Y22.6688
G01 X41.5059 Y22.6810
G01 X41.4907 Y22.6947
G01 X41.4770 Y22.7099
G01 X41.4648 Y22.7263
G01 X41.4542 Y22.7439
G01 X41.4455 Y22.7624
G01 X41.4386 Y22.7817
G01 X41.4336 Y22.8015
G01 X41.4306 Y22.8218
G01 X41.4296 Y22.8422
G01 X41.4306 Y22.8627
G01 X41.4336 Y22.8829
G01 X41.4386 Y22.9028
G01 X41.4455 Y22.9221
G01 X41.4542 Y22.9406
G01 X41.4648 Y22.9581
G01 X41.4770 Y22.9746
G01 X41.4907 Y22.9897
G01 X41.5059 Y23.0035
G01 X41.5223 Y23.0157
G01 X41.5399 Y23.0262
G01 X41.5584 Y23.0350
G01 X41.5777 Y23.0418
G01 X41.5975 Y23.0468
G01 X41.6178 Y23.0498
G01 X41.6382 Y23.0508
G01 X41.6587 Y23.0498
G01 X41.6789 Y23.0468
G01 X41.6988 Y23.0418
G01 X41.7181 Y23.0350
G01 X41.7366 Y23.0262
G01 X41.7541 Y23.0157
G01 X41.7706 Y23.0035
G01 X41.7857 Y22.9897
G01 X41.7995 Y22.9746
G01 X41.8117 Y22.9581
G01 X41.8222 Y22.9406
G01 X41.8310 Y22.9221
G01 X41.8378 Y22.9028
G01 X41.8428 Y22.8829
G01 X41.8458 Y22.8627
G01 X41.8468 Y22.8422
G00 Z2.0000
M05
G00 Z2.0000
G00 Z5.00


