(G-CODE GENERATED BY FLATCAM v8.994 - www.flatcam.org - Version Date: 2020/11/7)

(Name: esp8266_dq_mini_temp_hum_sensor_copperBottom.gbl_ncc_cnc)
(Type: G-code from Geometry)
(Units: MM)

(Created on Monday, 09 January 2023 at 11:19)

(This preprocessor is the default preprocessor used by FlatCAM.)
(It is made to work with MACH3 compatible motion controllers.)

(TOOL DIAMETER: 0.8 mm)
(Feedrate_XY: 120.0 mm/min)
(Feedrate_Z: 60.0 mm/min)
(Feedrate rapids 1500.0 mm/min)

(Z_Cut: -0.1 mm)
(Z_Move: 2.0 mm)
(Z Start: None mm)
(Z End: 10.0 mm)
(X,Y End: None mm)
(Steps per circle: 64)
(Preprocessor Geometry: default)

(X range:    0.2500 ...   49.7500  mm)
(Y range:    0.2500 ...   29.7500  mm)

(Spindle Speed: 5000.0 RPM)
G21
G90
G94

G01 F120.00

M5
G00 Z15.0000
G00 X0.0000 Y0.0000
T3
M6    
(MSG, Change to Tool Dia = 0.8000)
M0
G00 Z15.0000

M03 S5000.0
G4 P1.0
G01 F120.00
G00 X8.6213 Y0.4000
G01 F60.00
G01 Z-0.1000
G01 F120.00
G01 X8.6469 Y0.4347
G01 X8.6578 Y0.4510
G01 X8.7437 Y0.5938
G01 X8.7572 Y0.6199
G01 X8.8244 Y0.7617
G01 X8.8353 Y0.7890
G01 X8.8850 Y0.9274
G01 X8.8912 Y0.9460
G01 X8.8965 Y0.9649
G01 X8.9347 Y1.1170
G01 X8.9401 Y1.1459
G01 X8.9619 Y1.2913
G01 X8.9643 Y1.3108
G01 X8.9658 Y1.3303
G01 X8.9733 Y1.4772
G01 X8.9738 Y1.4968
G01 X8.9733 Y1.5164
G01 X8.9664 Y1.6633
G01 X8.9650 Y1.6829
G01 X8.9626 Y1.7023
G01 X8.9432 Y1.8350
G01 X13.3471 Y1.8350
G01 X13.3428 Y1.8063
G01 X13.3332 Y1.7518
G01 X13.3307 Y1.7323
G01 X13.3291 Y1.7141
G01 X13.3255 Y1.6862
G01 X13.3240 Y1.6667
G01 X13.3218 Y1.6212
G01 X13.3176 Y1.5660
G01 X13.3170 Y1.5464
G01 X13.3172 Y1.5281
G01 X13.3163 Y1.5000
G01 X13.3168 Y1.4804
G01 X13.3190 Y1.4349
G01 X13.3202 Y1.3796
G01 X13.3216 Y1.3600
G01 X13.3236 Y1.3418
G01 X13.3255 Y1.3138
G01 X13.3279 Y1.2943
G01 X13.3346 Y1.2492
G01 X13.3412 Y1.1943
G01 X13.3444 Y1.1749
G01 X13.3482 Y1.1570
G01 X13.3510 Y1.1390
G01 X13.3549 Y1.1197
G01 X13.3682 Y1.0660
G01 X13.3802 Y1.0120
G01 X13.3853 Y0.9930
G01 X13.3909 Y0.9756
G01 X13.3981 Y0.9485
G01 X13.4043 Y0.9298
G01 X13.4196 Y0.8869
G01 X13.4369 Y0.8343
G01 X13.4438 Y0.8160
G01 X13.4510 Y0.7992
G01 X13.4573 Y0.7820
G01 X13.4648 Y0.7639
G01 X13.4884 Y0.7138
G01 X13.5107 Y0.6631
G01 X13.5194 Y0.6455
G01 X13.5282 Y0.6295
G01 X13.5362 Y0.6131
G01 X13.5454 Y0.5957
G01 X13.5738 Y0.5482
G01 X13.5960 Y0.5085
G01 X13.6060 Y0.4916
G01 X13.6217 Y0.4683
G01 X13.6312 Y0.4526
G01 X13.6421 Y0.4363
G01 X13.6689 Y0.4000
G01 X8.6213 Y0.4000
G01 X9.1506 Y0.7200
G01 X9.1875 Y0.8229
G01 X9.1962 Y0.8489
G01 X9.2012 Y0.8658
G01 X9.2068 Y0.8867
G01 X9.2436 Y1.0331
G01 X9.2497 Y1.0599
G01 X9.2531 Y1.0772
G01 X9.2566 Y1.0985
G01 X9.2784 Y1.2439
G01 X9.2812 Y1.2653
G01 X9.2831 Y1.2828
G01 X9.2854 Y1.3141
G01 X9.2929 Y1.4610
G01 X9.2938 Y1.4924
G01 X9.2936 Y1.5150
G01 X12.9965 Y1.5150
G01 X12.9967 Y1.4784
G01 X12.9992 Y1.4239
G01 X13.0004 Y1.3694
G01 X13.0018 Y1.3439
G01 X13.0046 Y1.3151
G01 X13.0067 Y1.2863
G01 X13.0085 Y1.2687
G01 X13.0173 Y1.2070
G01 X13.0239 Y1.1528
G01 X13.0278 Y1.1276
G01 X13.0333 Y1.0992
G01 X13.0382 Y1.0708
G01 X13.0418 Y1.0534
G01 X13.0566 Y0.9928
G01 X13.0663 Y0.9492
G01 X13.0728 Y0.9225
G01 X13.0831 Y0.8872
G01 X13.0908 Y0.8593
G01 X13.0961 Y0.8425
G01 X13.1168 Y0.7836
G01 X13.1306 Y0.7411
G01 X13.1379 Y0.7200
G01 X9.1506 Y0.7200
G01 X9.5713 Y1.0400
G01 X9.5946 Y1.1950
G01 X12.6956 Y1.1950
G01 X12.7001 Y1.1647
G01 X12.7082 Y1.0997
G01 X12.7129 Y1.0706
G01 X12.7187 Y1.0400
G01 X9.5713 Y1.0400
G00 Z2.0000
G00 X12.8512 Y3.2450
G01 F60.00
G01 Z-0.1000
G01 F120.00
G01 X12.8708 Y3.2712
G01 X12.8817 Y3.2873
G01 X12.9679 Y3.4289
G01 X12.9815 Y3.4548
G01 X13.0219 Y3.5385
G01 X13.0262 Y3.2450
G01 X12.8512 Y3.2450
G00 Z2.0000
G00 X14.4730 Y6.2040
G01 F60.00
G01 Z-0.1000
G01 F120.00
G01 X14.6812 Y6.2040
G01 X14.7008 Y6.2045
G01 X14.7204 Y6.2059
G01 X14.7399 Y6.2083
G01 X14.7592 Y6.2117
G01 X14.7784 Y6.2160
G01 X14.8067 Y6.2242
G01 X14.8343 Y6.2345
G01 X14.8610 Y6.2467
G01 X14.8868 Y6.2609
G01 X14.9115 Y6.2770
G01 X14.9350 Y6.2948
G01 X14.9570 Y6.3143
G01 X14.9776 Y6.3354
G01 X14.9965 Y6.3579
G01 X15.0082 Y6.3737
G01 X15.0243 Y6.3984
G01 X15.0385 Y6.4242
G01 X15.0507 Y6.4509
G01 X15.0610 Y6.4785
G01 X15.0667 Y6.4973
G01 X15.0735 Y6.5260
G01 X15.0782 Y6.5550
G01 X15.0801 Y6.5746
G01 X15.0811 Y6.5942
G01 X15.0812 Y6.8896
G01 X17.5765 Y6.8896
G01 X17.6114 Y6.8318
G01 X17.6223 Y6.8155
G01 X17.6858 Y6.7297
G01 X17.7042 Y6.7067
G01 X17.7758 Y6.6275
G01 X17.7893 Y6.6133
G01 X17.8035 Y6.5998
G01 X17.8753 Y6.5347
G01 X17.8902 Y6.5218
G01 X17.9057 Y6.5098
G01 X17.9835 Y6.4520
G01 X18.0078 Y6.4354
G01 X18.0993 Y6.3804
G01 X18.1164 Y6.3707
G01 X18.1339 Y6.3619
G01 X18.2127 Y6.3246
G01 X18.1339 Y6.2873
G01 X18.1164 Y6.2785
G01 X18.0993 Y6.2688
G01 X18.0078 Y6.2138
G01 X17.9835 Y6.1972
G01 X17.9057 Y6.1394
G01 X17.8902 Y6.1274
G01 X17.8753 Y6.1145
G01 X17.8035 Y6.0494
G01 X17.7893 Y6.0359
G01 X17.7758 Y6.0217
G01 X17.7042 Y5.9425
G01 X17.6858 Y5.9195
G01 X17.6223 Y5.8337
G01 X17.6114 Y5.8174
G01 X17.5766 Y5.7596
G01 X14.8879 Y5.7596
G01 X14.8573 Y5.8106
G01 X14.8468 Y5.8272
G01 X14.8355 Y5.8432
G01 X14.7717 Y5.9291
G01 X14.7527 Y5.9517
G01 X14.6808 Y6.0309
G01 X14.6597 Y6.0514
G01 X14.5877 Y6.1167
G01 X14.5728 Y6.1295
G01 X14.5573 Y6.1416
G01 X14.4730 Y6.2040
G00 Z2.0000
G00 X15.1745 Y6.0796
G01 F60.00
G01 Z-0.1000
G01 F120.00
G01 X15.1931 Y6.0977
G01 X15.2173 Y6.1234
G01 X15.2402 Y6.1503
G01 X15.2618 Y6.1783
G01 X15.2820 Y6.2073
G01 X15.3008 Y6.2372
G01 X15.3180 Y6.2681
G01 X15.3337 Y6.2997
G01 X15.3479 Y6.3321
G01 X15.3604 Y6.3651
G01 X15.3713 Y6.3988
G01 X15.3806 Y6.4329
G01 X15.3881 Y6.4674
G01 X15.3940 Y6.5022
G01 X15.3981 Y6.5373
G01 X15.4004 Y6.5696
G01 X17.4060 Y6.5696
G01 X17.4370 Y6.5281
G01 X17.4593 Y6.5007
G01 X17.4736 Y6.4844
G01 X17.5387 Y6.4126
G01 X17.5534 Y6.3968
G01 X17.5728 Y6.3774
G01 X17.6306 Y6.3246
G01 X17.5728 Y6.2718
G01 X17.5534 Y6.2524
G01 X17.5387 Y6.2366
G01 X17.4736 Y6.1648
G01 X17.4593 Y6.1485
G01 X17.4370 Y6.1211
G01 X17.4060 Y6.0796
G01 X15.1745 Y6.0796
G00 Z2.0000
G00 X17.2617 Y13.6720
G01 F60.00
G01 Z-0.1000
G01 F120.00
G01 X18.0171 Y14.0497
G01 X18.0993 Y14.0004
G01 X18.1164 Y13.9907
G01 X18.1339 Y13.9819
G01 X18.2127 Y13.9446
G01 X18.1339 Y13.9073
G01 X18.1164 Y13.8985
G01 X18.0993 Y13.8888
G01 X18.0078 Y13.8338
G01 X17.9835 Y13.8172
G01 X17.9057 Y13.7594
G01 X17.8827 Y13.7410
G01 X17.8035 Y13.6694
G01 X17.7893 Y13.6559
G01 X17.7758 Y13.6417
G01 X17.7107 Y13.5699
G01 X17.6978 Y13.5550
G01 X17.6858 Y13.5395
G01 X17.6280 Y13.4617
G01 X17.6112 Y13.4371
G01 X17.5946 Y13.4507
G01 X17.4786 Y13.5400
G01 X17.4547 Y13.5570
G01 X17.3140 Y13.6449
G01 X17.2969 Y13.6544
G01 X17.2617 Y13.6720
G00 Z2.0000
G00 X15.1567 Y14.5536
G01 F60.00
G01 Z-0.1000
G01 F120.00
G01 X15.1717 Y14.5862
G01 X15.1822 Y14.6116
G01 X15.1898 Y14.6318
G01 X15.2237 Y14.7270
G01 X15.2292 Y14.7438
G01 X15.2363 Y14.7683
G01 X15.2574 Y14.8521
G01 X17.1706 Y15.8087
G01 X17.1429 Y15.7309
G01 X17.1325 Y15.6971
G01 X17.1269 Y15.6763
G01 X17.1002 Y15.5689
G01 X17.0949 Y15.5439
G01 X17.0908 Y15.5206
G01 X15.1567 Y14.5536
G00 Z2.0000
G00 X13.9065 Y13.9446
G01 F60.00
G01 Z-0.1000
G01 F120.00
G01 X13.9324 Y13.9486
G01 X13.9517 Y13.9524
G01 X14.0459 Y13.9759
G01 X14.0741 Y13.9841
G01 X14.1656 Y14.0167
G01 X14.1839 Y14.0237
G01 X14.2018 Y14.0317
G01 X14.2807 Y14.0690
G01 X14.2982 Y14.0778
G01 X14.3153 Y14.0875
G01 X14.3901 Y14.1323
G01 X14.4067 Y14.1428
G01 X14.4228 Y14.1541
G01 X14.4929 Y14.2061
G01 X14.5083 Y14.2182
G01 X14.5232 Y14.2310
G01 X14.5878 Y14.2896
G01 X14.6089 Y14.3102
G01 X14.6742 Y14.3820
G01 X14.6870 Y14.3969
G01 X14.6991 Y14.4123
G01 X14.7511 Y14.4824
G01 X14.7677 Y14.5067
G01 X14.8177 Y14.5899
G01 X14.8274 Y14.6070
G01 X14.8362 Y14.6245
G01 X14.8735 Y14.7034
G01 X14.8815 Y14.7213
G01 X14.8885 Y14.7396
G01 X14.9179 Y14.8218
G01 X14.9241 Y14.8404
G01 X14.9293 Y14.8593
G01 X14.9505 Y14.9440
G01 X14.9548 Y14.9631
G01 X14.9582 Y14.9825
G01 X14.9706 Y15.0665
G01 X18.0171 Y16.5897
G01 X18.0993 Y16.5404
G01 X18.1164 Y16.5307
G01 X18.1339 Y16.5219
G01 X18.2127 Y16.4846
G01 X18.1339 Y16.4473
G01 X18.1164 Y16.4385
G01 X18.0993 Y16.4288
G01 X18.0162 Y16.3790
G01 X17.9996 Y16.3685
G01 X17.9835 Y16.3572
G01 X17.9057 Y16.2994
G01 X17.8902 Y16.2874
G01 X17.8753 Y16.2745
G01 X17.8035 Y16.2094
G01 X17.7893 Y16.1959
G01 X17.7758 Y16.1817
G01 X17.7107 Y16.1099
G01 X17.6978 Y16.0950
G01 X17.6858 Y16.0795
G01 X17.6223 Y15.9937
G01 X17.6062 Y15.9690
G01 X17.5564 Y15.8859
G01 X17.5467 Y15.8688
G01 X17.5379 Y15.8513
G01 X17.4964 Y15.7636
G01 X17.4885 Y15.7457
G01 X17.4814 Y15.7274
G01 X17.4487 Y15.6361
G01 X17.4426 Y15.6175
G01 X17.4373 Y15.5985
G01 X17.4138 Y15.5045
G01 X17.4095 Y15.4853
G01 X17.4061 Y15.4660
G01 X17.3906 Y15.3604
G01 X17.3887 Y15.3408
G01 X17.3871 Y15.3110
G01 X14.3395 Y13.7872
G01 X14.3068 Y13.8067
G01 X14.2895 Y13.8159
G01 X14.1929 Y13.8616
G01 X14.1656 Y13.8725
G01 X14.0834 Y13.9019
G01 X14.0553 Y13.9108
G01 X13.9517 Y13.9368
G01 X13.9324 Y13.9406
G01 X13.9065 Y13.9446
G00 Z2.0000
G00 X13.9065 Y16.4846
G01 F60.00
G01 Z-0.1000
G01 F120.00
G01 X13.9324 Y16.4886
G01 X13.9517 Y16.4924
G01 X14.0553 Y16.5184
G01 X14.0834 Y16.5273
G01 X14.1748 Y16.5601
G01 X14.2018 Y16.5717
G01 X14.2807 Y16.6090
G01 X14.2982 Y16.6178
G01 X14.3153 Y16.6275
G01 X14.3901 Y16.6723
G01 X14.4148 Y16.6884
G01 X14.5007 Y16.7521
G01 X14.5232 Y16.7710
G01 X14.5950 Y16.8363
G01 X14.6156 Y16.8574
G01 X14.6807 Y16.9294
G01 X14.6931 Y16.9445
G01 X14.7181 Y16.9780
G01 X14.7404 Y16.9571
G01 X14.7555 Y16.9445
G01 X14.8714 Y16.8524
G01 X14.8872 Y16.8405
G01 X14.9035 Y16.8294
G01 X15.0362 Y16.7439
G01 X15.0533 Y16.7341
G01 X15.1025 Y16.7087
G01 X14.3395 Y16.3272
G01 X14.3068 Y16.3467
G01 X14.2895 Y16.3559
G01 X14.1929 Y16.4016
G01 X14.1656 Y16.4125
G01 X14.0834 Y16.4419
G01 X14.0553 Y16.4508
G01 X13.9517 Y16.4768
G01 X13.9324 Y16.4806
G01 X13.9065 Y16.4846
G00 Z2.0000
G00 X13.2438 Y16.5466
G01 F60.00
G01 Z-0.1000
G01 F120.00
G01 X13.3071 Y16.5241
G01 X13.3259 Y16.5184
G01 X13.4295 Y16.4924
G01 X13.4488 Y16.4886
G01 X13.4747 Y16.4846
G01 X13.4488 Y16.4806
G01 X13.4295 Y16.4768
G01 X13.3353 Y16.4533
G01 X13.3071 Y16.4451
G01 X13.2753 Y16.4339
G01 X13.2702 Y16.4548
G01 X13.2612 Y16.4848
G01 X13.2537 Y16.5151
G01 X13.2481 Y16.5339
G01 X13.2438 Y16.5466
G00 Z2.0000
G00 X13.4747 Y19.0246
G01 F60.00
G01 Z-0.1000
G01 F120.00
G01 X13.4488 Y19.0206
G01 X13.4295 Y19.0168
G01 X13.3353 Y18.9933
G01 X13.3164 Y18.9881
G01 X13.2978 Y18.9819
G01 X13.2156 Y18.9525
G01 X13.1973 Y18.9455
G01 X13.1848 Y18.9400
G01 X13.2240 Y19.0523
G01 X13.2296 Y19.0713
G01 X13.2343 Y19.0900
G01 X13.2978 Y19.0673
G01 X13.3259 Y19.0584
G01 X13.4295 Y19.0324
G01 X13.4488 Y19.0286
G01 X13.4747 Y19.0246
G00 Z2.0000
G00 X14.1644 Y19.0962
G01 F60.00
G01 Z-0.1000
G01 F120.00
G01 X14.1514 Y19.0598
G01 X14.1452 Y19.0412
G01 X14.1362 Y19.0074
G01 X14.1287 Y18.9834
G01 X14.1245 Y18.9672
G01 X14.0741 Y18.9851
G01 X14.0459 Y18.9933
G01 X13.9517 Y19.0168
G01 X13.9324 Y19.0206
G01 X13.9065 Y19.0246
G01 X13.9324 Y19.0286
G01 X13.9517 Y19.0324
G01 X14.0553 Y19.0584
G01 X14.0834 Y19.0673
G01 X14.1644 Y19.0962
G00 Z2.0000
G00 X13.9065 Y21.5646
G01 F60.00
G01 Z-0.1000
G01 F120.00
G01 X13.9324 Y21.5686
G01 X13.9612 Y21.5747
G01 X14.0553 Y21.5984
G01 X14.0834 Y21.6073
G01 X14.1656 Y21.6367
G01 X14.1839 Y21.6437
G01 X14.2018 Y21.6517
G01 X14.2807 Y21.6890
G01 X14.3068 Y21.7025
G01 X14.3901 Y21.7523
G01 X14.4067 Y21.7628
G01 X14.4228 Y21.7741
G01 X14.4929 Y21.8261
G01 X14.5083 Y21.8382
G01 X14.5232 Y21.8510
G01 X14.5878 Y21.9096
G01 X14.6021 Y21.9231
G01 X14.6156 Y21.9374
G01 X14.6742 Y22.0020
G01 X14.6870 Y22.0169
G01 X14.6991 Y22.0323
G01 X14.7511 Y22.1024
G01 X14.7624 Y22.1185
G01 X14.7729 Y22.1351
G01 X14.8177 Y22.2099
G01 X14.8274 Y22.2270
G01 X14.8362 Y22.2445
G01 X14.8735 Y22.3234
G01 X14.8815 Y22.3413
G01 X14.8885 Y22.3596
G01 X14.9179 Y22.4418
G01 X14.9241 Y22.4604
G01 X14.9293 Y22.4793
G01 X14.9505 Y22.5640
G01 X14.9566 Y22.5928
G01 X14.9723 Y22.6985
G01 X14.9748 Y22.7278
G01 X14.9791 Y22.8150
G01 X14.9796 Y22.8346
G01 X14.9791 Y22.8542
G01 X14.9742 Y22.9512
G01 X14.9710 Y22.9804
G01 X14.9582 Y23.0667
G01 X14.9528 Y23.0957
G01 X14.9268 Y23.1993
G01 X14.9211 Y23.2181
G01 X14.9028 Y23.2698
G01 X14.9476 Y23.2806
G01 X14.9666 Y23.2861
G01 X15.1256 Y23.3411
G01 X15.1530 Y23.3525
G01 X15.2879 Y23.4147
G01 X15.3056 Y23.4235
G01 X15.3229 Y23.4331
G01 X15.4594 Y23.5134
G01 X15.4760 Y23.5242
G01 X15.5256 Y23.5603
G01 X15.5256 Y20.9996
G01 X14.7695 Y20.9996
G01 X14.7624 Y21.0107
G01 X14.7511 Y21.0268
G01 X14.6991 Y21.0969
G01 X14.6870 Y21.1123
G01 X14.6742 Y21.1272
G01 X14.6156 Y21.1918
G01 X14.6021 Y21.2061
G01 X14.5878 Y21.2196
G01 X14.5232 Y21.2782
G01 X14.5083 Y21.2910
G01 X14.4929 Y21.3031
G01 X14.4228 Y21.3551
G01 X14.4067 Y21.3664
G01 X14.3901 Y21.3769
G01 X14.3153 Y21.4217
G01 X14.2982 Y21.4314
G01 X14.2807 Y21.4402
G01 X14.2018 Y21.4775
G01 X14.1748 Y21.4891
G01 X14.0834 Y21.5219
G01 X14.0553 Y21.5308
G01 X13.9517 Y21.5568
G01 X13.9324 Y21.5606
G01 X13.9065 Y21.5646
G01 X14.6774 Y21.5646
G01 X14.7083 Y21.5884
G01 X14.7352 Y21.6113
G01 X14.8128 Y21.6818
G01 X14.8255 Y21.6941
G01 X14.8434 Y21.7124
G01 X14.9113 Y21.7871
G01 X14.9319 Y21.8108
G01 X14.9538 Y21.8386
G01 X15.0162 Y21.9229
G01 X15.0306 Y21.9440
G01 X15.0473 Y21.9705
G01 X15.0991 Y22.0572
G01 X15.1160 Y22.0883
G01 X15.1255 Y22.1077
G01 X15.1628 Y22.1866
G01 X15.1717 Y22.2062
G01 X15.1851 Y22.2389
G01 X15.2056 Y22.2960
G01 X15.2056 Y21.3196
G01 X14.9309 Y21.3196
G01 X14.9113 Y21.3421
G01 X14.8500 Y21.4096
G01 X14.8379 Y21.4225
G01 X14.8185 Y21.4419
G01 X14.8027 Y21.4567
G01 X14.7278 Y21.5244
G01 X14.7006 Y21.5470
G01 X14.6774 Y21.5646
G00 Z2.0000
G00 X17.2556 Y21.0823
G01 F60.00
G01 Z-0.1000
G01 F120.00
G01 X17.2556 Y22.0469
G01 X17.2663 Y22.0261
G01 X17.2799 Y22.0022
G01 X17.3317 Y21.9157
G01 X17.3485 Y21.8891
G01 X17.3687 Y21.8601
G01 X17.4370 Y21.7681
G01 X17.4480 Y21.7542
G01 X17.4644 Y21.7347
G01 X17.5480 Y21.6425
G01 X17.5603 Y21.6298
G01 X17.5785 Y21.6120
G01 X17.6306 Y21.5646
G01 X17.5785 Y21.5172
G01 X17.5658 Y21.5049
G01 X17.5480 Y21.4867
G01 X17.4644 Y21.3945
G01 X17.4530 Y21.3810
G01 X17.4370 Y21.3611
G01 X17.3687 Y21.2691
G01 X17.3485 Y21.2401
G01 X17.3317 Y21.2135
G01 X17.2799 Y21.1270
G01 X17.2663 Y21.1031
G01 X17.2556 Y21.0823
G00 Z2.0000
G00 X17.4295 Y19.9420
G01 F60.00
G01 Z-0.1000
G01 F120.00
G01 X17.4204 Y19.9498
G01 X17.4048 Y19.9621
G01 X17.2860 Y20.0515
G01 X17.2698 Y20.0630
G01 X17.2531 Y20.0737
G01 X17.1260 Y20.1509
G01 X17.1088 Y20.1608
G01 X17.0911 Y20.1698
G01 X16.9570 Y20.2340
G01 X16.9335 Y20.2442
G01 X16.9351 Y20.2750
G01 X16.9356 Y20.2946
G01 X16.9356 Y24.6442
G01 X19.6071 Y24.6442
G01 X19.5875 Y24.6180
G01 X19.5714 Y24.5936
G01 X19.4954 Y24.4687
G01 X19.4856 Y24.4518
G01 X19.4767 Y24.4344
G01 X19.4132 Y24.3027
G01 X19.4052 Y24.2849
G01 X19.3980 Y24.2668
G01 X19.3477 Y24.1295
G01 X19.3414 Y24.1110
G01 X19.3381 Y24.1000
G01 X19.3107 Y24.1129
G01 X19.2926 Y24.1204
G01 X19.1828 Y24.1597
G01 X19.1545 Y24.1679
G01 X19.0509 Y24.1937
G01 X19.0220 Y24.1991
G01 X18.9261 Y24.2133
G01 X18.9066 Y24.2157
G01 X18.8870 Y24.2171
G01 X18.7804 Y24.2223
G01 X18.7510 Y24.2219
G01 X18.6542 Y24.2171
G01 X18.6346 Y24.2157
G01 X18.6151 Y24.2133
G01 X18.5192 Y24.1991
G01 X18.4999 Y24.1957
G01 X18.4807 Y24.1914
G01 X18.3867 Y24.1679
G01 X18.3677 Y24.1626
G01 X18.3491 Y24.1565
G01 X18.2486 Y24.1204
G01 X18.2216 Y24.1088
G01 X18.1339 Y24.0673
G01 X18.1164 Y24.0585
G01 X18.0993 Y24.0488
G01 X18.0162 Y23.9990
G01 X17.9996 Y23.9885
G01 X17.9835 Y23.9772
G01 X17.9057 Y23.9194
G01 X17.8902 Y23.9074
G01 X17.8753 Y23.8945
G01 X17.8035 Y23.8294
G01 X17.7893 Y23.8159
G01 X17.7758 Y23.8017
G01 X17.7107 Y23.7299
G01 X17.6978 Y23.7150
G01 X17.6858 Y23.6995
G01 X17.6280 Y23.6217
G01 X17.6167 Y23.6056
G01 X17.6062 Y23.5890
G01 X17.5564 Y23.5059
G01 X17.5467 Y23.4888
G01 X17.5379 Y23.4713
G01 X17.4964 Y23.3836
G01 X17.4885 Y23.3657
G01 X17.4814 Y23.3474
G01 X17.4487 Y23.2561
G01 X17.4426 Y23.2375
G01 X17.4373 Y23.2185
G01 X17.4138 Y23.1245
G01 X17.4095 Y23.1053
G01 X17.4061 Y23.0860
G01 X17.3919 Y22.9901
G01 X17.3895 Y22.9706
G01 X17.3881 Y22.9510
G01 X17.3833 Y22.8542
G01 X17.3828 Y22.8346
G01 X17.3833 Y22.8150
G01 X17.3881 Y22.7182
G01 X17.3895 Y22.6986
G01 X17.3919 Y22.6791
G01 X17.4061 Y22.5832
G01 X17.4095 Y22.5639
G01 X17.4138 Y22.5447
G01 X17.4373 Y22.4507
G01 X17.4426 Y22.4317
G01 X17.4487 Y22.4131
G01 X17.4848 Y22.3126
G01 X17.4964 Y22.2856
G01 X17.5379 Y22.1979
G01 X17.5467 Y22.1804
G01 X17.5564 Y22.1633
G01 X17.6062 Y22.0802
G01 X17.6167 Y22.0636
G01 X17.6280 Y22.0475
G01 X17.6858 Y21.9697
G01 X17.6978 Y21.9542
G01 X17.7107 Y21.9393
G01 X17.7824 Y21.8603
G01 X17.8035 Y21.8398
G01 X17.8753 Y21.7747
G01 X17.8902 Y21.7618
G01 X17.9057 Y21.7498
G01 X17.9915 Y21.6863
G01 X18.0162 Y21.6702
G01 X18.0993 Y21.6204
G01 X18.1164 Y21.6107
G01 X18.1339 Y21.6019
G01 X18.2127 Y21.5646
G01 X18.1339 Y21.5273
G01 X18.1164 Y21.5185
G01 X18.0993 Y21.5088
G01 X18.0162 Y21.4590
G01 X17.9996 Y21.4485
G01 X17.9835 Y21.4372
G01 X17.9057 Y21.3794
G01 X17.8902 Y21.3674
G01 X17.8753 Y21.3545
G01 X17.7963 Y21.2828
G01 X17.7758 Y21.2617
G01 X17.7107 Y21.1899
G01 X17.6978 Y21.1750
G01 X17.6858 Y21.1595
G01 X17.6280 Y21.0817
G01 X17.6114 Y21.0574
G01 X17.5564 Y20.9659
G01 X17.5467 Y20.9488
G01 X17.5379 Y20.9313
G01 X17.4964 Y20.8436
G01 X17.4885 Y20.8257
G01 X17.4814 Y20.8074
G01 X17.4487 Y20.7161
G01 X17.4426 Y20.6975
G01 X17.4373 Y20.6785
G01 X17.4138 Y20.5845
G01 X17.4095 Y20.5653
G01 X17.4061 Y20.5460
G01 X17.3919 Y20.4501
G01 X17.3895 Y20.4306
G01 X17.3881 Y20.4110
G01 X17.3833 Y20.3142
G01 X17.3828 Y20.2946
G01 X17.3833 Y20.2750
G01 X17.3887 Y20.1684
G01 X17.3919 Y20.1391
G01 X17.4077 Y20.0335
G01 X17.4138 Y20.0047
G01 X17.4295 Y19.9420
G00 Z2.0000
G00 X18.0490 Y18.9387
G01 F60.00
G01 Z-0.1000
G01 F120.00
G01 X18.0350 Y18.9981
G01 X18.0271 Y19.0268
G01 X17.9844 Y19.1514
G01 X17.9996 Y19.1407
G01 X18.0162 Y19.1302
G01 X18.1078 Y19.0754
G01 X18.1339 Y19.0619
G01 X18.2127 Y19.0246
G01 X18.1339 Y18.9873
G01 X18.1164 Y18.9785
G01 X18.0993 Y18.9688
G01 X18.0490 Y18.9387
G00 Z2.0000
G00 X17.2556 Y23.6223
G01 F60.00
G01 Z-0.1000
G01 F120.00
G01 X17.2556 Y24.3242
G01 X17.9364 Y24.3242
G01 X17.8483 Y24.2714
G01 X17.8186 Y24.2524
G01 X17.7929 Y24.2342
G01 X17.7041 Y24.1682
G01 X17.6842 Y24.1522
G01 X17.6604 Y24.1316
G01 X17.5857 Y24.0639
G01 X17.5658 Y24.0449
G01 X17.5534 Y24.0324
G01 X17.5387 Y24.0166
G01 X17.4736 Y23.9448
G01 X17.4530 Y23.9210
G01 X17.4311 Y23.8933
G01 X17.3687 Y23.8091
G01 X17.3485 Y23.7801
G01 X17.3317 Y23.7535
G01 X17.2750 Y23.6585
G01 X17.2663 Y23.6431
G01 X17.2556 Y23.6223
G00 Z2.0000
G00 X16.6722 Y26.8896
G01 F60.00
G01 Z-0.1000
G01 F120.00
G01 X16.7243 Y26.7326
G01 X16.7325 Y26.7058
G01 X16.7391 Y26.6806
G01 X16.7750 Y26.5206
G01 X16.7795 Y26.4990
G01 X16.7854 Y26.4635
G01 X16.7963 Y26.3742
G01 X23.2842 Y26.3742
G01 X23.2886 Y26.4039
G01 X23.3132 Y26.5510
G01 X23.3183 Y26.5777
G01 X23.3240 Y26.6022
G01 X23.3651 Y26.7557
G01 X23.3709 Y26.7762
G01 X23.3818 Y26.8093
G01 X23.4118 Y26.8896
G01 X16.6722 Y26.8896
G01 X16.1409 Y27.2096
G01 X16.1822 Y27.1519
G01 X16.1934 Y27.1353
G01 X16.1987 Y27.1268
G01 X16.2783 Y26.9880
G01 X16.2832 Y26.9793
G01 X16.2923 Y26.9614
G01 X16.3577 Y26.8154
G01 X16.3654 Y26.7969
G01 X16.3721 Y26.7781
G01 X16.4224 Y26.6261
G01 X16.4277 Y26.6069
G01 X16.4300 Y26.5971
G01 X16.4628 Y26.4507
G01 X16.4666 Y26.4311
G01 X16.4695 Y26.4113
G01 X16.4875 Y26.2623
G01 X16.4894 Y26.2424
G01 X16.4903 Y26.2224
G01 X16.4933 Y26.0724
G01 X16.4932 Y26.0542
G01 X23.5910 Y26.0542
G01 X23.5889 Y26.1290
G01 X23.5891 Y26.1580
G01 X23.5996 Y26.3126
G01 X23.6027 Y26.3415
G01 X23.6281 Y26.4944
G01 X23.6318 Y26.5135
G01 X23.6364 Y26.5323
G01 X23.6767 Y26.6819
G01 X23.6860 Y26.7095
G01 X23.7371 Y26.8455
G01 X23.7443 Y26.8635
G01 X23.7525 Y26.8811
G01 X23.8165 Y27.0115
G01 X23.8255 Y27.0287
G01 X23.8352 Y27.0454
G01 X23.9116 Y27.1690
G01 X23.9222 Y27.1853
G01 X23.9401 Y27.2096
G01 X16.1409 Y27.2096
G00 Z2.0000
G00 X11.4724 Y29.2800
G01 F60.00
G01 Z-0.1000
G01 F120.00
G01 X11.5059 Y29.1881
G01 X11.5115 Y29.1715
G01 X11.5219 Y29.1376
G01 X11.5292 Y29.1111
G01 X11.5439 Y29.0521
G01 X11.5604 Y28.9892
G01 X11.5667 Y28.9627
G01 X11.5714 Y28.9396
G01 X36.1088 Y28.9412
G01 X36.1353 Y29.0597
G01 X36.1442 Y29.0946
G01 X36.1535 Y29.1252
G01 X36.2049 Y29.2800
G01 X11.4724 Y29.2800
G01 X10.9434 Y29.6000
G01 X10.9607 Y29.5769
G01 X10.9821 Y29.5450
G01 X11.0184 Y29.4845
G01 X11.0579 Y29.4197
G01 X11.0769 Y29.3845
G01 X11.1069 Y29.3212
G01 X11.1353 Y29.2626
G01 X11.1434 Y29.2449
G01 X11.1555 Y29.2154
G01 X11.1789 Y29.1501
G01 X11.2044 Y29.0808
G01 X11.2145 Y29.0489
G01 X11.2197 Y29.0300
G01 X11.2339 Y28.9728
G01 X11.2523 Y28.9022
G01 X11.2595 Y28.8680
G01 X11.2628 Y28.8486
G01 X11.2713 Y28.7909
G01 X11.2812 Y28.7295
G01 X11.2838 Y28.7103
G01 X11.2874 Y28.6737
G01 X11.2901 Y28.6196
G01 X36.3870 Y28.6196
G01 X36.3876 Y28.6312
G01 X36.3895 Y28.6511
G01 X36.4073 Y28.8002
G01 X36.4102 Y28.8200
G01 X36.4140 Y28.8396
G01 X36.4467 Y28.9861
G01 X36.4515 Y29.0056
G01 X36.4574 Y29.0247
G01 X36.5077 Y29.1767
G01 X36.5150 Y29.1954
G01 X36.5189 Y29.2046
G01 X36.5801 Y29.3417
G01 X36.5843 Y29.3508
G01 X36.5933 Y29.3686
G01 X36.6778 Y29.5163
G01 X36.6886 Y29.5331
G01 X36.6943 Y29.5414
G01 X36.7362 Y29.6000
G01 X10.9434 Y29.6000
G00 Z2.0000
G00 X2.3746 Y21.2158
G01 F60.00
G01 Z-0.1000
G01 F120.00
G01 X2.3988 Y21.2229
G01 X2.4173 Y21.2295
G01 X2.4443 Y21.2411
G01 X2.4619 Y21.2499
G01 X2.4789 Y21.2596
G01 X2.4955 Y21.2701
G01 X2.5194 Y21.2874
G01 X2.5346 Y21.2998
G01 X2.5561 Y21.3199
G01 X2.5685 Y21.3329
G01 X2.5816 Y21.3453
G01 X2.5939 Y21.3583
G01 X2.6070 Y21.3707
G01 X2.6270 Y21.3922
G01 X2.6394 Y21.4074
G01 X2.6567 Y21.4313
G01 X2.6672 Y21.4479
G01 X2.6781 Y21.4674
G01 X2.6955 Y21.4853
G01 X2.7154 Y21.5047
G01 X2.7286 Y21.5192
G01 X2.7352 Y21.5271
G01 X2.7748 Y21.4709
G01 X2.7867 Y21.4557
G01 X2.8044 Y21.4348
G01 X2.7792 Y21.4192
G01 X2.7631 Y21.4079
G01 X2.6802 Y21.3462
G01 X2.6577 Y21.3273
G01 X2.5885 Y21.2645
G01 X2.5674 Y21.2439
G01 X2.4914 Y21.1601
G01 X2.4730 Y21.1371
G01 X2.4173 Y21.0621
G01 X2.4060 Y21.0460
G01 X2.3955 Y21.0294
G01 X2.3475 Y20.9492
G01 X2.3333 Y20.9234
G01 X2.2890 Y20.8301
G01 X2.2811 Y20.8122
G01 X2.2740 Y20.7939
G01 X2.2425 Y20.7059
G01 X2.2363 Y20.6872
G01 X2.2322 Y20.6723
G01 X2.2105 Y20.6817
G01 X2.1922 Y20.6886
G01 X2.0538 Y20.7367
G01 X2.0258 Y20.7453
G01 X1.8739 Y20.7820
G01 X1.8548 Y20.7861
G01 X1.8355 Y20.7893
G01 X1.7236 Y20.8050
G01 X1.7419 Y20.8136
G01 X1.7658 Y20.8267
G01 X1.7768 Y20.8314
G01 X1.8052 Y20.8389
G01 X1.8239 Y20.8451
G01 X1.8422 Y20.8522
G01 X1.8601 Y20.8601
G01 X1.8777 Y20.8689
G01 X1.8928 Y20.8775
G01 X1.9198 Y20.8898
G01 X1.9436 Y20.9029
G01 X1.9706 Y20.9152
G01 X1.9944 Y20.9283
G01 X2.0214 Y20.9406
G01 X2.0452 Y20.9537
G01 X2.0722 Y20.9660
G01 X2.0960 Y20.9791
G01 X2.1230 Y20.9914
G01 X2.1468 Y21.0045
G01 X2.1738 Y21.0168
G01 X2.1911 Y21.0261
G01 X2.2079 Y21.0362
G01 X2.2322 Y21.0528
G01 X2.2552 Y21.0712
G01 X2.2767 Y21.0913
G01 X2.2891 Y21.1043
G01 X2.3022 Y21.1167
G01 X2.3157 Y21.1309
G01 X2.3285 Y21.1458
G01 X2.3463 Y21.1692
G01 X2.3624 Y21.1939
G01 X2.3746 Y21.2158
G00 Z2.0000
G00 X1.0400 Y22.6585
G01 F60.00
G01 Z-0.1000
G01 F120.00
G01 X1.0713 Y22.6623
G01 X1.0878 Y22.6678
G01 X1.0973 Y22.6723
G01 X1.1173 Y22.6827
G01 X1.1279 Y22.6901
G01 X1.1859 Y22.7481
G01 X1.1933 Y22.7587
G01 X1.2037 Y22.7787
G01 X1.2082 Y22.7882
G01 X1.2137 Y22.8047
G01 X1.2167 Y22.8300
G01 X1.2211 Y22.8600
G01 X1.2174 Y22.8850
G01 X1.2071 Y22.9274
G01 X1.1936 Y22.9480
G01 X1.1802 Y22.9695
G01 X1.1680 Y22.9866
G01 X1.1317 Y23.0132
G01 X1.0965 Y23.0415
G01 X1.0816 Y23.0462
G01 X1.0400 Y23.0552
G01 X1.0400 Y22.6585
G01 X0.7200 Y22.1810
G01 X0.7412 Y22.1981
G01 X0.7633 Y22.2145
G01 X0.7844 Y22.2289
G01 X0.8076 Y22.2436
G01 X0.8296 Y22.2565
G01 X0.8539 Y22.2694
G01 X0.8768 Y22.2806
G01 X0.9019 Y22.2918
G01 X0.9256 Y22.3012
G01 X0.9515 Y22.3105
G01 X0.9759 Y22.3182
G01 X1.0023 Y22.3255
G01 X1.0368 Y22.3335
G01 X1.0716 Y22.3397
G01 X1.1066 Y22.3442
G01 X1.1396 Y22.3469
G01 X1.1444 Y22.3482
G01 X1.1634 Y22.3555
G01 X1.1801 Y22.3613
G01 X1.2070 Y22.3698
G01 X1.2405 Y22.3859
G01 X1.2603 Y22.3964
G01 X1.2825 Y22.4073
G01 X1.3031 Y22.4222
G01 X1.3311 Y22.4407
G01 X1.4353 Y22.5449
G01 X1.4538 Y22.5728
G01 X1.4687 Y22.5935
G01 X1.4796 Y22.6157
G01 X1.4901 Y22.6355
G01 X1.5062 Y22.6690
G01 X1.5122 Y22.6884
G01 X1.5179 Y22.7051
G01 X1.5278 Y22.7316
G01 X1.5291 Y22.7364
G01 X1.5318 Y22.7694
G01 X1.5363 Y22.8044
G01 X1.5410 Y22.8315
G01 X1.5471 Y22.8600
G01 X1.5425 Y22.8808
G01 X1.5379 Y22.9059
G01 X1.5351 Y22.9233
G01 X1.5321 Y22.9479
G01 X1.5251 Y22.9733
G01 X1.5209 Y22.9905
G01 X1.5171 Y23.0078
G01 X1.5132 Y23.0287
G01 X1.5062 Y23.0510
G01 X1.4941 Y23.0757
G01 X1.4737 Y23.1044
G01 X1.4597 Y23.1258
G01 X1.4468 Y23.1473
G01 X1.4284 Y23.1725
G01 X1.4099 Y23.2005
G01 X1.3819 Y23.2285
G01 X1.3540 Y23.2470
G01 X1.3333 Y23.2619
G01 X1.3055 Y23.2838
G01 X1.2842 Y23.3023
G01 X1.2670 Y23.3133
G01 X1.2441 Y23.3290
G01 X1.2217 Y23.3365
G01 X1.1952 Y23.3464
G01 X1.1593 Y23.3572
G01 X1.1384 Y23.3611
G01 X1.1116 Y23.3671
G01 X1.0945 Y23.3716
G01 X1.0699 Y23.3787
G01 X1.0365 Y23.3899
G01 X1.0036 Y23.4028
G01 X0.9784 Y23.4140
G01 X0.9468 Y23.4297
G01 X0.9159 Y23.4469
G01 X0.8860 Y23.4657
G01 X0.8570 Y23.4859
G01 X0.8290 Y23.5075
G01 X0.8021 Y23.5304
G01 X0.7814 Y23.5497
G01 X0.7200 Y23.5497
G01 X0.7200 Y22.1810
G01 X0.4000 Y21.8249
G01 X0.8329 Y21.8249
G01 X0.8380 Y21.8337
G01 X0.8485 Y21.8503
G01 X0.8658 Y21.8742
G01 X0.8847 Y21.8967
G01 X0.9053 Y21.9178
G01 X0.9273 Y21.9373
G01 X0.9508 Y21.9551
G01 X0.9755 Y21.9712
G01 X1.0013 Y21.9854
G01 X1.0280 Y21.9976
G01 X1.0463 Y22.0047
G01 X1.0650 Y22.0109
G01 X1.0839 Y22.0161
G01 X1.1127 Y22.0222
G01 X1.1419 Y22.0262
G01 X1.1615 Y22.0276
G01 X1.1933 Y22.0281
G01 X1.2174 Y22.0363
G01 X1.2458 Y22.0438
G01 X1.2657 Y22.0521
G01 X1.2842 Y22.0587
G01 X1.3030 Y22.0644
G01 X1.3220 Y22.0692
G01 X1.3330 Y22.0739
G01 X1.3481 Y22.0825
G01 X1.3657 Y22.0913
G01 X1.3838 Y22.0993
G01 X1.4076 Y22.1124
G01 X1.4346 Y22.1247
G01 X1.4560 Y22.1365
G01 X1.4762 Y22.1526
G01 X1.4923 Y22.1639
G01 X1.5088 Y22.1744
G01 X1.5284 Y22.1853
G01 X1.5463 Y22.2027
G01 X1.5586 Y22.2157
G01 X1.5717 Y22.2281
G01 X1.5840 Y22.2411
G01 X1.5971 Y22.2535
G01 X1.6094 Y22.2665
G01 X1.6225 Y22.2789
G01 X1.6348 Y22.2919
G01 X1.6479 Y22.3043
G01 X1.6602 Y22.3173
G01 X1.6733 Y22.3297
G01 X1.6907 Y22.3476
G01 X1.7016 Y22.3671
G01 X1.7121 Y22.3837
G01 X1.7234 Y22.3998
G01 X1.7395 Y22.4200
G01 X1.7513 Y22.4414
G01 X1.7636 Y22.4683
G01 X1.7767 Y22.4922
G01 X1.7890 Y22.5191
G01 X1.8021 Y22.5430
G01 X1.8068 Y22.5540
G01 X1.8116 Y22.5730
G01 X1.8173 Y22.5918
G01 X1.8239 Y22.6102
G01 X1.8322 Y22.6302
G01 X1.8397 Y22.6586
G01 X1.8479 Y22.6827
G01 X1.8480 Y22.7047
G01 X1.8490 Y22.7243
G01 X1.8522 Y22.7536
G01 X1.8556 Y22.7729
G01 X1.8624 Y22.8016
G01 X1.8681 Y22.8204
G01 X1.8733 Y22.8351
G01 X1.8733 Y22.8849
G01 X1.8651 Y22.9090
G01 X1.8576 Y22.9375
G01 X1.8538 Y22.9567
G01 X1.8509 Y22.9761
G01 X1.8490 Y22.9957
G01 X1.8482 Y23.0112
G01 X1.8397 Y23.0360
G01 X1.8345 Y23.0549
G01 X1.8284 Y23.0837
G01 X1.8251 Y23.1067
G01 X1.8205 Y23.1189
G01 X1.8143 Y23.1376
G01 X1.8068 Y23.1660
G01 X1.8021 Y23.1770
G01 X1.7935 Y23.1921
G01 X1.7847 Y23.2097
G01 X1.7767 Y23.2278
G01 X1.7649 Y23.2492
G01 X1.7488 Y23.2694
G01 X1.7375 Y23.2855
G01 X1.7270 Y23.3020
G01 X1.7141 Y23.3254
G01 X1.6980 Y23.3456
G01 X1.6867 Y23.3617
G01 X1.6762 Y23.3782
G01 X1.6653 Y23.3978
G01 X1.6479 Y23.4157
G01 X1.6349 Y23.4280
G01 X1.6225 Y23.4411
G01 X1.6095 Y23.4534
G01 X1.5971 Y23.4665
G01 X1.5792 Y23.4839
G01 X1.5682 Y23.4899
G01 X1.5513 Y23.5000
G01 X1.5270 Y23.5166
G01 X1.5040 Y23.5350
G01 X1.4895 Y23.5482
G01 X1.4776 Y23.5601
G01 X1.4581 Y23.5710
G01 X1.4415 Y23.5815
G01 X1.4254 Y23.5928
G01 X1.4052 Y23.6089
G01 X1.3838 Y23.6207
G01 X1.3728 Y23.6254
G01 X1.3538 Y23.6302
G01 X1.3350 Y23.6359
G01 X1.3166 Y23.6425
G01 X1.2966 Y23.6508
G01 X1.2682 Y23.6583
G01 X1.2496 Y23.6645
G01 X1.2373 Y23.6691
G01 X1.2143 Y23.6724
G01 X1.1951 Y23.6762
G01 X1.1760 Y23.6810
G01 X1.1572 Y23.6867
G01 X1.1387 Y23.6933
G01 X1.1206 Y23.7008
G01 X1.1029 Y23.7092
G01 X1.0855 Y23.7185
G01 X1.0605 Y23.7339
G01 X1.0444 Y23.7452
G01 X1.0214 Y23.7636
G01 X0.9999 Y23.7837
G01 X0.9798 Y23.8052
G01 X0.9614 Y23.8282
G01 X0.9448 Y23.8525
G01 X0.9345 Y23.8697
G01 X0.4000 Y23.8697
G01 X0.4000 Y21.8249
G00 Z2.0000
G00 X0.4000 Y20.4673
G01 F60.00
G01 Z-0.1000
G01 F120.00
G01 X0.4000 Y20.7824
G01 X0.4076 Y20.7806
G01 X0.4184 Y20.7759
G01 X0.4368 Y20.7689
G01 X0.4648 Y20.7600
G01 X0.4935 Y20.7532
G01 X0.5128 Y20.7498
G01 X0.5261 Y20.7481
G01 X0.5384 Y20.7435
G01 X0.5570 Y20.7373
G01 X0.5759 Y20.7321
G01 X0.5951 Y20.7278
G01 X0.6144 Y20.7244
G01 X0.6437 Y20.7212
G01 X0.6633 Y20.7202
G01 X0.6853 Y20.7201
G01 X0.7000 Y20.7149
G01 X0.7188 Y20.7092
G01 X0.7379 Y20.7044
G01 X0.7571 Y20.7006
G01 X0.7765 Y20.6977
G01 X0.7961 Y20.6958
G01 X0.8157 Y20.6948
G01 X0.8272 Y20.6947
G01 X0.7720 Y20.6745
G01 X0.7540 Y20.6669
G01 X0.6131 Y20.5994
G01 X0.5957 Y20.5905
G01 X0.5787 Y20.5808
G01 X0.4451 Y20.4997
G01 X0.4289 Y20.4888
G01 X0.4000 Y20.4673
G00 Z2.0000
G00 X1.1697 Y12.5717
G01 F60.00
G01 Z-0.1000
G01 F120.00
G01 X1.1279 Y12.5301
G01 X1.1173 Y12.5227
G01 X1.0973 Y12.5123
G01 X1.0878 Y12.5078
G01 X1.0713 Y12.5023
G01 X1.0408 Y12.4986
G01 X1.0404 Y12.8919
G01 X1.0544 Y12.8919
G01 X1.0816 Y12.8862
G01 X1.0965 Y12.8815
G01 X1.1317 Y12.8532
G01 X1.1680 Y12.8266
G01 X1.1802 Y12.8095
G01 X1.1936 Y12.7880
G01 X1.2071 Y12.7674
G01 X1.2174 Y12.7250
G01 X1.2211 Y12.7000
G01 X1.2167 Y12.6700
G01 X1.2137 Y12.6447
G01 X1.2082 Y12.6282
G01 X1.2037 Y12.6187
G01 X1.1933 Y12.5987
G01 X1.1859 Y12.5881
G01 X1.1697 Y12.5717
G01 X0.7200 Y13.2815
G01 X0.7405 Y13.2721
G01 X0.7568 Y13.2652
G01 X0.7733 Y13.2588
G01 X0.7991 Y13.2495
G01 X0.8159 Y13.2441
G01 X0.8405 Y13.2370
G01 X0.8576 Y13.2325
G01 X0.8844 Y13.2265
G01 X0.9095 Y13.2219
G01 X0.9367 Y13.2178
G01 X0.9542 Y13.2158
G01 X0.9797 Y13.2136
G01 X1.0150 Y13.2120
G01 X1.0932 Y13.2119
G01 X1.1288 Y13.2032
G01 X1.1593 Y13.1972
G01 X1.1952 Y13.1864
G01 X1.2217 Y13.1765
G01 X1.2441 Y13.1690
G01 X1.2670 Y13.1533
G01 X1.2842 Y13.1423
G01 X1.3055 Y13.1238
G01 X1.3333 Y13.1019
G01 X1.3540 Y13.0870
G01 X1.3819 Y13.0685
G01 X1.4099 Y13.0405
G01 X1.4284 Y13.0125
G01 X1.4468 Y12.9873
G01 X1.4597 Y12.9658
G01 X1.4737 Y12.9444
G01 X1.4941 Y12.9157
G01 X1.5062 Y12.8910
G01 X1.5132 Y12.8687
G01 X1.5171 Y12.8478
G01 X1.5209 Y12.8305
G01 X1.5251 Y12.8133
G01 X1.5321 Y12.7879
G01 X1.5351 Y12.7633
G01 X1.5379 Y12.7459
G01 X1.5425 Y12.7208
G01 X1.5471 Y12.7000
G01 X1.5410 Y12.6715
G01 X1.5351 Y12.6366
G01 X1.5318 Y12.6094
G01 X1.5291 Y12.5764
G01 X1.5278 Y12.5716
G01 X1.5205 Y12.5525
G01 X1.5147 Y12.5359
G01 X1.5062 Y12.5090
G01 X1.4901 Y12.4755
G01 X1.4796 Y12.4557
G01 X1.4687 Y12.4335
G01 X1.4538 Y12.4128
G01 X1.4353 Y12.3849
G01 X1.3311 Y12.2807
G01 X1.3031 Y12.2622
G01 X1.2825 Y12.2473
G01 X1.2603 Y12.2364
G01 X1.2405 Y12.2259
G01 X1.2070 Y12.2098
G01 X1.1876 Y12.2038
G01 X1.1708 Y12.1981
G01 X1.1444 Y12.1882
G01 X1.1396 Y12.1869
G01 X1.1066 Y12.1842
G01 X1.0793 Y12.1809
G01 X1.0445 Y12.1750
G01 X1.0195 Y12.1697
G01 X0.9853 Y12.1609
G01 X0.9590 Y12.1530
G01 X0.9348 Y12.1447
G01 X0.9092 Y12.1348
G01 X0.8857 Y12.1247
G01 X0.8609 Y12.1130
G01 X0.8382 Y12.1012
G01 X0.8076 Y12.0836
G01 X0.7844 Y12.0689
G01 X0.7633 Y12.0545
G01 X0.7412 Y12.0381
G01 X0.7200 Y12.0210
G01 X0.7200 Y13.2815
G01 X0.4000 Y11.6649
G01 X0.4000 Y13.7097
G01 X0.6961 Y13.7097
G01 X0.7134 Y13.6858
G01 X0.7323 Y13.6633
G01 X0.7529 Y13.6422
G01 X0.7749 Y13.6227
G01 X0.7984 Y13.6049
G01 X0.8147 Y13.5940
G01 X0.8315 Y13.5839
G01 X0.8577 Y13.5703
G01 X0.8847 Y13.5587
G01 X0.9032 Y13.5521
G01 X0.9315 Y13.5439
G01 X0.9507 Y13.5396
G01 X0.9700 Y13.5362
G01 X0.9895 Y13.5338
G01 X1.0189 Y13.5320
G01 X1.1425 Y13.5319
G01 X1.1666 Y13.5237
G01 X1.1855 Y13.5185
G01 X1.2143 Y13.5124
G01 X1.2373 Y13.5091
G01 X1.2496 Y13.5045
G01 X1.2682 Y13.4983
G01 X1.2966 Y13.4908
G01 X1.3074 Y13.4861
G01 X1.3258 Y13.4791
G01 X1.3444 Y13.4729
G01 X1.3728 Y13.4654
G01 X1.3838 Y13.4607
G01 X1.4052 Y13.4489
G01 X1.4254 Y13.4328
G01 X1.4415 Y13.4215
G01 X1.4581 Y13.4110
G01 X1.4776 Y13.4001
G01 X1.4895 Y13.3882
G01 X1.5040 Y13.3750
G01 X1.5270 Y13.3566
G01 X1.5513 Y13.3400
G01 X1.5682 Y13.3299
G01 X1.5792 Y13.3239
G01 X1.5971 Y13.3065
G01 X1.6095 Y13.2934
G01 X1.6225 Y13.2811
G01 X1.6349 Y13.2680
G01 X1.6479 Y13.2557
G01 X1.6653 Y13.2378
G01 X1.6762 Y13.2182
G01 X1.6867 Y13.2017
G01 X1.6980 Y13.1856
G01 X1.7141 Y13.1654
G01 X1.7270 Y13.1420
G01 X1.7375 Y13.1255
G01 X1.7488 Y13.1094
G01 X1.7649 Y13.0892
G01 X1.7767 Y13.0678
G01 X1.7847 Y13.0497
G01 X1.7935 Y13.0321
G01 X1.8021 Y13.0170
G01 X1.8068 Y13.0060
G01 X1.8143 Y12.9776
G01 X1.8205 Y12.9589
G01 X1.8251 Y12.9467
G01 X1.8284 Y12.9237
G01 X1.8345 Y12.8949
G01 X1.8397 Y12.8760
G01 X1.8482 Y12.8512
G01 X1.8490 Y12.8357
G01 X1.8509 Y12.8161
G01 X1.8538 Y12.7967
G01 X1.8576 Y12.7775
G01 X1.8651 Y12.7490
G01 X1.8733 Y12.7249
G01 X1.8733 Y12.6751
G01 X1.8681 Y12.6604
G01 X1.8624 Y12.6416
G01 X1.8556 Y12.6129
G01 X1.8509 Y12.5839
G01 X1.8490 Y12.5643
G01 X1.8480 Y12.5447
G01 X1.8479 Y12.5227
G01 X1.8397 Y12.4986
G01 X1.8322 Y12.4702
G01 X1.8239 Y12.4502
G01 X1.8173 Y12.4318
G01 X1.8116 Y12.4130
G01 X1.8068 Y12.3940
G01 X1.8021 Y12.3830
G01 X1.7890 Y12.3591
G01 X1.7767 Y12.3322
G01 X1.7636 Y12.3083
G01 X1.7513 Y12.2814
G01 X1.7395 Y12.2600
G01 X1.7234 Y12.2398
G01 X1.7121 Y12.2237
G01 X1.7016 Y12.2071
G01 X1.6907 Y12.1876
G01 X1.6733 Y12.1697
G01 X1.6602 Y12.1573
G01 X1.6479 Y12.1443
G01 X1.6348 Y12.1319
G01 X1.6225 Y12.1189
G01 X1.6094 Y12.1065
G01 X1.5971 Y12.0935
G01 X1.5840 Y12.0811
G01 X1.5717 Y12.0681
G01 X1.5586 Y12.0557
G01 X1.5463 Y12.0427
G01 X1.5284 Y12.0253
G01 X1.5088 Y12.0144
G01 X1.4923 Y12.0039
G01 X1.4762 Y11.9926
G01 X1.4560 Y11.9765
G01 X1.4346 Y11.9647
G01 X1.4076 Y11.9524
G01 X1.3838 Y11.9393
G01 X1.3657 Y11.9313
G01 X1.3481 Y11.9225
G01 X1.3330 Y11.9139
G01 X1.3220 Y11.9092
G01 X1.3030 Y11.9044
G01 X1.2842 Y11.8987
G01 X1.2657 Y11.8921
G01 X1.2458 Y11.8838
G01 X1.2174 Y11.8763
G01 X1.1933 Y11.8681
G01 X1.1615 Y11.8676
G01 X1.1419 Y11.8662
G01 X1.1127 Y11.8622
G01 X1.0839 Y11.8561
G01 X1.0650 Y11.8509
G01 X1.0463 Y11.8447
G01 X1.0190 Y11.8338
G01 X1.0013 Y11.8254
G01 X0.9755 Y11.8112
G01 X0.9508 Y11.7951
G01 X0.9273 Y11.7773
G01 X0.9053 Y11.7578
G01 X0.8847 Y11.7367
G01 X0.8658 Y11.7142
G01 X0.8485 Y11.6903
G01 X0.8380 Y11.6737
G01 X0.8329 Y11.6649
G01 X0.4000 Y11.6649
G00 Z2.0000
G00 X0.4000 Y10.3078
G01 F60.00
G01 Z-0.1000
G01 F120.00
G01 X0.4000 Y10.6224
G01 X0.4269 Y10.6168
G01 X0.4499 Y10.6135
G01 X0.4714 Y10.6057
G01 X0.4902 Y10.6000
G01 X0.5189 Y10.5932
G01 X0.5382 Y10.5898
G01 X0.5515 Y10.5881
G01 X0.5638 Y10.5835
G01 X0.5824 Y10.5773
G01 X0.6013 Y10.5721
G01 X0.6205 Y10.5678
G01 X0.6398 Y10.5644
G01 X0.6691 Y10.5612
G01 X0.6887 Y10.5602
G01 X0.7107 Y10.5601
G01 X0.7254 Y10.5549
G01 X0.7442 Y10.5492
G01 X0.7729 Y10.5424
G01 X0.8019 Y10.5377
G01 X0.8285 Y10.5354
G01 X0.7820 Y10.5186
G01 X0.7424 Y10.5019
G01 X0.6779 Y10.4705
G01 X0.6219 Y10.4440
G01 X0.6043 Y10.4352
G01 X0.5753 Y10.4193
G01 X0.5141 Y10.3817
G01 X0.4526 Y10.3447
G01 X0.4251 Y10.3263
G01 X0.4000 Y10.3078
G00 Z2.0000
G00 X2.3746 Y11.0558
G01 F60.00
G01 Z-0.1000
G01 F120.00
G01 X2.3988 Y11.0629
G01 X2.4173 Y11.0695
G01 X2.4354 Y11.0770
G01 X2.4619 Y11.0899
G01 X2.4873 Y11.1048
G01 X2.5036 Y11.1157
G01 X2.5194 Y11.1274
G01 X2.5346 Y11.1398
G01 X2.5561 Y11.1599
G01 X2.5685 Y11.1729
G01 X2.5816 Y11.1853
G01 X2.5939 Y11.1983
G01 X2.6070 Y11.2107
G01 X2.6270 Y11.2322
G01 X2.6394 Y11.2474
G01 X2.6567 Y11.2713
G01 X2.6672 Y11.2879
G01 X2.6781 Y11.3074
G01 X2.6955 Y11.3253
G01 X2.7154 Y11.3447
G01 X2.7286 Y11.3592
G01 X2.7352 Y11.3671
G01 X2.7748 Y11.3109
G01 X2.7867 Y11.2957
G01 X2.8044 Y11.2748
G01 X2.7792 Y11.2592
G01 X2.7631 Y11.2479
G01 X2.6802 Y11.1862
G01 X2.6577 Y11.1673
G01 X2.5885 Y11.1045
G01 X2.5674 Y11.0839
G01 X2.4914 Y11.0001
G01 X2.4730 Y10.9771
G01 X2.4173 Y10.9021
G01 X2.4060 Y10.8860
G01 X2.3955 Y10.8694
G01 X2.3475 Y10.7892
G01 X2.3333 Y10.7634
G01 X2.2890 Y10.6701
G01 X2.2811 Y10.6522
G01 X2.2740 Y10.6339
G01 X2.2425 Y10.5459
G01 X2.2363 Y10.5272
G01 X2.2323 Y10.5127
G01 X2.1963 Y10.5273
G01 X2.1285 Y10.5507
G01 X2.0702 Y10.5716
G01 X2.0515 Y10.5777
G01 X2.0197 Y10.5870
G01 X1.9499 Y10.6037
G01 X1.8898 Y10.6188
G01 X1.8707 Y10.6231
G01 X1.8381 Y10.6291
G01 X1.7670 Y10.6389
G01 X1.7243 Y10.6453
G01 X1.7419 Y10.6536
G01 X1.7658 Y10.6667
G01 X1.7768 Y10.6714
G01 X1.8052 Y10.6789
G01 X1.8239 Y10.6851
G01 X1.8422 Y10.6922
G01 X1.8601 Y10.7001
G01 X1.8777 Y10.7089
G01 X1.8928 Y10.7175
G01 X1.9198 Y10.7298
G01 X1.9436 Y10.7429
G01 X1.9706 Y10.7552
G01 X1.9944 Y10.7683
G01 X2.0214 Y10.7806
G01 X2.0452 Y10.7937
G01 X2.0722 Y10.8060
G01 X2.0960 Y10.8191
G01 X2.1230 Y10.8314
G01 X2.1403 Y10.8407
G01 X2.1571 Y10.8508
G01 X2.1814 Y10.8674
G01 X2.2016 Y10.8835
G01 X2.2250 Y10.8964
G01 X2.2496 Y10.9125
G01 X2.2731 Y10.9303
G01 X2.2951 Y10.9498
G01 X2.3090 Y10.9637
G01 X2.3222 Y10.9782
G01 X2.3406 Y11.0012
G01 X2.3572 Y11.0255
G01 X2.3673 Y11.0423
G01 X2.3746 Y11.0558
G00 Z2.0000
G00 X4.8006 Y9.6728
G01 F60.00
G01 Z-0.1000
G01 F120.00
G01 X4.7838 Y9.6261
G01 X4.7763 Y9.6080
G01 X4.7322 Y9.5146
G01 X4.7187 Y9.4884
G01 X4.6657 Y9.3998
G01 X4.6552 Y9.3832
G01 X4.6439 Y9.3671
G01 X4.5882 Y9.2921
G01 X4.5761 Y9.2766
G01 X4.5633 Y9.2617
G01 X4.5005 Y9.1925
G01 X4.4870 Y9.1782
G01 X4.4727 Y9.1647
G01 X4.3961 Y9.0954
G01 X4.3731 Y9.0770
G01 X4.2901 Y9.0156
G01 X4.2738 Y9.0047
G01 X4.2417 Y8.9853
G01 X4.2569 Y7.8896
G01 X6.2739 Y5.8624
G01 X6.2773 Y5.8859
G01 X6.2831 Y5.9145
G01 X6.3172 Y6.0559
G01 X6.3250 Y6.0840
G01 X6.3757 Y6.2307
G01 X6.3825 Y6.2489
G01 X6.3901 Y6.2667
G01 X6.4550 Y6.4078
G01 X6.4688 Y6.4334
G01 X6.5420 Y6.5592
G01 X6.5576 Y6.5838
G01 X6.6483 Y6.7098
G01 X6.6600 Y6.7253
G01 X6.6724 Y6.7402
G01 X6.7345 Y6.8107
G01 X6.0048 Y6.8956
G01 X5.9681 Y6.9014
G01 X5.9463 Y6.9057
G01 X5.9102 Y6.9146
G01 X5.8795 Y6.9237
G01 X5.8445 Y6.9361
G01 X5.8262 Y6.9434
G01 X5.8059 Y6.9522
G01 X5.7724 Y6.9683
G01 X5.7528 Y6.9788
G01 X5.7208 Y6.9978
G01 X5.7044 Y7.0085
G01 X5.6861 Y7.0211
G01 X5.6564 Y7.0435
G01 X5.6393 Y7.0576
G01 X5.6116 Y7.0825
G01 X5.5888 Y7.1050
G01 X5.5638 Y7.1324
G01 X5.5511 Y7.1474
G01 X5.5373 Y7.1648
G01 X5.5154 Y7.1948
G01 X5.4979 Y7.2216
G01 X5.4790 Y7.2537
G01 X5.4685 Y7.2733
G01 X5.4485 Y7.3158
G01 X5.4366 Y7.3455
G01 X5.4243 Y7.3806
G01 X5.4179 Y7.4019
G01 X5.4066 Y7.4475
G01 X5.4007 Y7.4789
G01 X5.3955 Y7.5158
G01 X5.3933 Y7.5378
G01 X5.3911 Y7.5848
G01 X5.3718 Y8.9780
G01 X5.3274 Y9.0047
G01 X5.3111 Y9.0156
G01 X5.2281 Y9.0770
G01 X5.2051 Y9.0954
G01 X5.1285 Y9.1647
G01 X5.1142 Y9.1782
G01 X5.1007 Y9.1925
G01 X5.0379 Y9.2617
G01 X5.0251 Y9.2766
G01 X5.0130 Y9.2921
G01 X4.9573 Y9.3671
G01 X4.9460 Y9.3832
G01 X4.9355 Y9.3998
G01 X4.8825 Y9.4884
G01 X4.8690 Y9.5146
G01 X4.8249 Y9.6080
G01 X4.8174 Y9.6261
G01 X4.8006 Y9.6728
G01 X4.5640 Y8.8202
G01 X4.5751 Y8.0235
G01 X5.0736 Y7.5225
G01 X5.0718 Y7.5588
G01 X5.0711 Y7.5804
G01 X5.0541 Y8.8076
G01 X5.0265 Y8.8283
G01 X4.9990 Y8.8506
G01 X4.9828 Y8.8648
G01 X4.9035 Y8.9369
G01 X4.8908 Y8.9492
G01 X4.8729 Y8.9675
G01 X4.8006 Y9.0471
G01 X4.7349 Y8.9747
G01 X4.7160 Y8.9548
G01 X4.7034 Y8.9423
G01 X4.6876 Y8.9276
G01 X4.6081 Y8.8557
G01 X4.5886 Y8.8393
G01 X4.5640 Y8.8202
G00 Z2.0000
G00 X6.7817 Y8.9853
G01 F60.00
G01 Z-0.1000
G01 F120.00
G01 X6.8138 Y9.0047
G01 X6.8301 Y9.0156
G01 X6.9131 Y9.0770
G01 X6.9361 Y9.0954
G01 X7.0127 Y9.1647
G01 X7.0270 Y9.1782
G01 X7.0405 Y9.1925
G01 X7.1033 Y9.2617
G01 X7.1222 Y9.2842
G01 X7.1839 Y9.3671
G01 X7.1952 Y9.3832
G01 X7.2057 Y9.3998
G01 X7.2537 Y9.4800
G01 X7.2634 Y9.4970
G01 X7.2722 Y9.5146
G01 X7.3122 Y9.5991
G01 X7.3201 Y9.6170
G01 X7.3272 Y9.6353
G01 X7.3587 Y9.7233
G01 X7.3676 Y9.7514
G01 X7.3928 Y9.8516
G01 X7.3971 Y9.8707
G01 X7.4005 Y9.8901
G01 X7.4142 Y9.9825
G01 X7.4166 Y10.0020
G01 X7.4180 Y10.0216
G01 X7.4226 Y10.1150
G01 X7.4231 Y10.1346
G01 X7.4226 Y10.1542
G01 X7.4180 Y10.2476
G01 X7.4166 Y10.2672
G01 X7.4142 Y10.2867
G01 X7.4005 Y10.3791
G01 X7.3971 Y10.3985
G01 X7.3928 Y10.4176
G01 X7.3701 Y10.5083
G01 X7.3649 Y10.5272
G01 X7.3587 Y10.5459
G01 X7.3272 Y10.6339
G01 X7.3201 Y10.6522
G01 X7.3122 Y10.6701
G01 X7.2796 Y10.7389
G01 X7.2905 Y10.7428
G01 X7.3088 Y10.7501
G01 X7.4447 Y10.8087
G01 X7.4714 Y10.8214
G01 X7.6181 Y10.9026
G01 X7.6349 Y10.9130
G01 X7.6801 Y10.9441
G01 X7.5981 Y8.1296
G01 X6.7923 Y8.2233
G01 X6.7817 Y8.9853
G01 X7.1040 Y8.8202
G01 X7.1286 Y8.8393
G01 X7.1481 Y8.8557
G01 X7.2377 Y8.9369
G01 X7.2560 Y8.9548
G01 X7.2683 Y8.9675
G01 X7.3035 Y9.0062
G01 X7.2884 Y8.4878
G01 X7.1084 Y8.5087
G01 X7.1040 Y8.8202
G00 Z2.0000
G00 X6.0197 Y6.5716
G01 F60.00
G01 Z-0.1000
G01 F120.00
G01 X6.1704 Y6.5541
G01 X6.1601 Y6.5325
G01 X6.1280 Y6.4627
G01 X6.0197 Y6.5716
G00 Z2.0000
G00 X41.0699 Y6.3259
G01 F60.00
G01 Z-0.1000
G01 F120.00
G01 X41.0727 Y6.3246
G01 X41.0691 Y6.3229
G01 X41.0695 Y6.3241
G01 X41.0699 Y6.3259
G00 Z2.0000
G00 X42.1885 Y19.0246
G01 F60.00
G01 Z-0.1000
G01 F120.00
G01 X42.2031 Y19.0315
G01 X42.2083 Y19.0152
G01 X42.1885 Y19.0246
G00 Z2.0000
G00 X45.9964 Y21.7102
G01 F60.00
G01 Z-0.1000
G01 F120.00
G01 X45.9780 Y21.7611
G01 X45.9704 Y21.7792
G01 X45.9029 Y21.9217
G01 X45.8940 Y21.9392
G01 X45.8843 Y21.9564
G01 X45.8029 Y22.0913
G01 X45.7919 Y22.1077
G01 X45.7608 Y22.1496
G01 X45.9902 Y22.1509
G01 X45.9964 Y21.7102
G00 Z2.0000
G00 X47.4930 Y18.9040
G01 F60.00
G01 Z-0.1000
G01 F120.00
G01 X47.7012 Y18.9040
G01 X47.7208 Y18.9045
G01 X47.7404 Y18.9059
G01 X47.7599 Y18.9083
G01 X47.7792 Y18.9117
G01 X47.8079 Y18.9185
G01 X47.8267 Y18.9242
G01 X47.8452 Y18.9308
G01 X47.8722 Y18.9424
G01 X47.8898 Y18.9512
G01 X47.9068 Y18.9609
G01 X47.9234 Y18.9714
G01 X47.9395 Y18.9827
G01 X47.9550 Y18.9948
G01 X47.9698 Y19.0076
G01 X47.9840 Y19.0212
G01 X48.0041 Y19.0427
G01 X48.0165 Y19.0579
G01 X48.0282 Y19.0737
G01 X48.0391 Y19.0900
G01 X48.0492 Y19.1068
G01 X48.0585 Y19.1242
G01 X48.0669 Y19.1419
G01 X48.0744 Y19.1600
G01 X48.0810 Y19.1785
G01 X48.0892 Y19.2068
G01 X48.0953 Y19.2356
G01 X48.0993 Y19.2648
G01 X48.1011 Y19.2942
G01 X48.1012 Y20.6989
G01 X48.1667 Y20.6846
G01 X48.1952 Y20.6795
G01 X48.3580 Y20.6602
G01 X48.3869 Y20.6585
G01 X48.5412 Y20.6553
G01 X48.5701 Y20.6564
G01 X48.7144 Y20.6673
G01 X48.7336 Y20.6692
G01 X48.7527 Y20.6720
G01 X48.9048 Y20.6985
G01 X48.9330 Y20.7051
G01 X49.0725 Y20.7434
G01 X49.0910 Y20.7490
G01 X49.1092 Y20.7554
G01 X49.2443 Y20.8070
G01 X49.2622 Y20.8143
G01 X49.2797 Y20.8225
G01 X49.4093 Y20.8869
G01 X49.4263 Y20.8959
G01 X49.4430 Y20.9057
G01 X49.5657 Y20.9822
G01 X49.5819 Y20.9928
G01 X49.6000 Y21.0062
G01 X49.6000 Y17.5695
G01 X49.5477 Y17.6072
G01 X49.5228 Y17.6237
G01 X49.3761 Y17.7085
G01 X49.3493 Y17.7218
G01 X49.2039 Y17.7873
G01 X49.1759 Y17.7979
G01 X49.0342 Y17.8455
G01 X49.0152 Y17.8514
G01 X48.9959 Y17.8563
G01 X48.8404 Y17.8918
G01 X48.8109 Y17.8966
G01 X48.6625 Y17.9152
G01 X48.6427 Y17.9172
G01 X48.6228 Y17.9182
G01 X48.4733 Y17.9220
G01 X48.4534 Y17.9220
G01 X48.4335 Y17.9210
G01 X48.2844 Y17.9099
G01 X48.2645 Y17.9079
G01 X48.2448 Y17.9050
G01 X48.0955 Y17.8787
G01 X48.0945 Y17.8909
G01 X48.0921 Y17.9104
G01 X48.0778 Y18.0065
G01 X48.0745 Y18.0259
G01 X48.0702 Y18.0450
G01 X48.0466 Y18.1393
G01 X48.0413 Y18.1583
G01 X48.0352 Y18.1769
G01 X48.0024 Y18.2684
G01 X47.9953 Y18.2868
G01 X47.9874 Y18.3047
G01 X47.9458 Y18.3926
G01 X47.9370 Y18.4101
G01 X47.9273 Y18.4272
G01 X47.8773 Y18.5106
G01 X47.8668 Y18.5272
G01 X47.8555 Y18.5432
G01 X47.7976 Y18.6213
G01 X47.7792 Y18.6443
G01 X47.7074 Y18.7237
G01 X47.6939 Y18.7379
G01 X47.6797 Y18.7514
G01 X47.6077 Y18.8167
G01 X47.5928 Y18.8295
G01 X47.5773 Y18.8416
G01 X47.4930 Y18.9040
G01 X48.1225 Y18.7201
G01 X48.1472 Y18.7388
G01 X48.1744 Y18.7614
G01 X48.1948 Y18.7799
G01 X48.2199 Y18.8047
G01 X48.2438 Y18.8308
G01 X48.2602 Y18.8503
G01 X48.2771 Y18.8720
G01 X48.2977 Y18.9007
G01 X48.3167 Y18.9305
G01 X48.3296 Y18.9525
G01 X48.3461 Y18.9838
G01 X48.3610 Y19.0158
G01 X48.3743 Y19.0486
G01 X48.3836 Y19.0744
G01 X48.3913 Y19.0988
G01 X48.4006 Y19.1329
G01 X48.4066 Y19.1597
G01 X48.4128 Y19.1945
G01 X48.4162 Y19.2198
G01 X48.4189 Y19.2471
G01 X48.4205 Y19.2726
G01 X48.4212 Y19.3001
G01 X48.4212 Y20.3377
G01 X48.5286 Y20.3354
G01 X48.5556 Y20.3355
G01 X48.5729 Y20.3361
G01 X48.5941 Y20.3373
G01 X48.7423 Y20.3485
G01 X48.7691 Y20.3512
G01 X48.8035 Y20.3561
G01 X48.9537 Y20.3821
G01 X48.9802 Y20.3873
G01 X49.0046 Y20.3931
G01 X49.1572 Y20.4349
G01 X49.1776 Y20.4408
G01 X49.2106 Y20.4518
G01 X49.2779 Y20.4773
G01 X49.2796 Y18.1006
G01 X49.1362 Y18.1488
G01 X49.1153 Y18.1555
G01 X49.0981 Y18.1605
G01 X49.0672 Y18.1683
G01 X48.9175 Y18.2025
G01 X48.8902 Y18.2080
G01 X48.8646 Y18.2122
G01 X48.6985 Y18.2332
G01 X48.6707 Y18.2360
G01 X48.6448 Y18.2376
G01 X48.4814 Y18.2419
G01 X48.4595 Y18.2421
G01 X48.4236 Y18.2410
G01 X48.3520 Y18.2359
G01 X48.3464 Y18.2549
G01 X48.3378 Y18.2810
G01 X48.3037 Y18.3762
G01 X48.2961 Y18.3965
G01 X48.2856 Y18.4219
G01 X48.2783 Y18.4380
G01 X48.2351 Y18.5294
G01 X48.2210 Y18.5575
G01 X48.2038 Y18.5883
G01 X48.1446 Y18.6868
G01 X48.1351 Y18.7017
G01 X48.1225 Y18.7201
G01 X48.5745 Y18.5597
G01 X48.5237 Y18.6676
G01 X48.5469 Y18.6988
G01 X48.5637 Y18.7230
G01 X48.5840 Y18.7543
G01 X48.6022 Y18.7846
G01 X48.6165 Y18.8103
G01 X48.6336 Y18.8434
G01 X48.6487 Y18.8754
G01 X48.6635 Y18.9096
G01 X48.6743 Y18.9371
G01 X48.6875 Y18.9741
G01 X48.6986 Y19.0096
G01 X48.7081 Y19.0437
G01 X48.7168 Y19.0800
G01 X48.7245 Y19.1185
G01 X48.7305 Y19.1553
G01 X48.7343 Y19.1845
G01 X48.7378 Y19.2197
G01 X48.7395 Y19.2451
G01 X48.7406 Y19.2706
G01 X48.7412 Y19.2981
G01 X48.7412 Y20.0275
G01 X48.7912 Y20.0317
G01 X48.8295 Y20.0363
G01 X48.8601 Y20.0411
G01 X48.9582 Y20.0581
G01 X48.9593 Y18.5206
G01 X48.9242 Y18.5268
G01 X48.8966 Y18.5308
G01 X48.7205 Y18.5527
G01 X48.6868 Y18.5557
G01 X48.6609 Y18.5572
G01 X48.5745 Y18.5597
G00 Z2.0000
M05
G00 Z2.0000
G00 Z10.00


